;FLAVOR:Marlin
;TIME:4124
;Filament used: 1.98117m
;Layer height: 0.2
;MINX:55.015
;MINY:84
;MINZ:0.2
;MAXX:164.994
;MAXY:135.999
;MAXZ:3
;TARGET_MACHINE.NAME:Creality Ender-3 Pro
;Generated with Cura_SteamEngine 5.6.0
M82 ;absolute extrusion mode
; Ender 3 Custom Start G-code
G92 E0 ; Reset Extruder
G28 ; Home all axes
G1 Z5.0 F3000 ; Move Z Axis up a bit during heating to not damage bed
M104 S175 ; Start heating up the nozzle most of the way
M190 S60 ; Start heating the bed, wait until target temperature reached
M109 S205 ; Finish heating the nozzle
G1 Z2.0 F3000 ; Move Z Axis up little to prevent scratching of Heat Bed
G1 X0.1 Y20 Z0.3 F5000.0 ; Move to start position
G1 X0.1 Y200.0 Z0.3 F1500.0 E15 ; Draw the first line
G1 X0.4 Y200.0 Z0.3 F5000.0 ; Move to side a little
G1 X0.4 Y20 Z0.3 F1500.0 E30 ; Draw the second line
G92 E0 ; Reset Extruder
G1 Z2.0 F3000 ; Move Z Axis up little to prevent scratching of Heat Bed
G1 X5 Y20 Z0.3 F5000.0 ; Move over to prevent blob squish
G92 E0
G92 E0
G1 F1500 E-6.5
;LAYER_COUNT:15
;LAYER:0
M107
G0 F6000 X64.449 Y92.64 Z0.2
;TYPE:SKIRT
G1 F1500 E0
G1 F1200 X65.142 Y92.175 E0.02776
G1 X65.705 Y91.823 E0.04984
G1 X67.999 Y90.482 E0.13822
G1 X70.127 Y89.163 E0.22149
G1 X73.165 Y87.153 E0.34265
G1 X73.597 Y86.882 E0.35961
G1 X74.535 Y86.36 E0.39531
G1 X75.242 Y86.023 E0.42136
G1 X75.713 Y85.813 E0.43852
G1 X76.501 Y85.498 E0.46674
G1 X77.197 Y85.256 E0.49125
G1 X77.692 Y85.098 E0.50853
G1 X78.294 Y84.924 E0.52937
G1 X79.14 Y84.71 E0.5584
G1 X79.604 Y84.605 E0.57422
G1 X80.439 Y84.439 E0.60254
G1 X80.854 Y84.371 E0.61652
G1 X81.606 Y84.266 E0.64178
G1 X82.648 Y84.145 E0.67667
G1 X83.291 Y84.091 E0.69813
G1 X84.745 Y84.021 E0.74655
G1 X86.034 Y84.001 E0.78942
G1 X145.808 Y84 E2.77752
G1 X147.36 Y84.022 E2.82914
G1 X148.118 Y84.052 E2.85437
G1 X149.525 Y84.164 E2.90132
G1 X150.135 Y84.233 E2.92173
G1 X151.231 Y84.39 E2.95856
G1 X151.865 Y84.497 E2.97994
G1 X152.335 Y84.594 E2.99591
G1 X153.254 Y84.809 E3.0273
G1 X153.686 Y84.922 E3.04215
G1 X154.243 Y85.082 E3.06142
G1 X155.055 Y85.346 E3.08982
G1 X155.478 Y85.495 E3.10474
G1 X156.248 Y85.799 E3.13227
G1 X156.903 Y86.095 E3.15618
G1 X157.381 Y86.326 E3.17384
G1 X158.323 Y86.84 E3.20953
G1 X158.884 Y87.192 E3.23156
G1 X159.329 Y87.487 E3.24931
G1 X160.088 Y88.042 E3.28059
G1 X160.94 Y88.796 E3.31843
G1 X161.344 Y89.196 E3.33734
G1 X162.005 Y89.912 E3.36975
G1 X162.576 Y90.648 E3.40073
G1 X162.926 Y91.173 E3.42172
G1 X163.222 Y91.647 E3.4403
G1 X163.699 Y92.495 E3.47267
G1 X164.086 Y93.35 E3.50388
G1 X164.418 Y94.299 E3.53732
G1 X164.628 Y95.107 E3.56509
G1 X164.738 Y95.618 E3.58247
G1 X164.901 Y96.586 E3.61512
G1 X164.984 Y97.76 E3.65427
G1 X164.994 Y98.405 E3.67572
G1 X164.994 Y121.534 E4.44499
G1 X164.981 Y122.28 E4.46981
G1 X164.919 Y123.253 E4.50224
G1 X164.774 Y124.206 E4.5343
G1 X164.683 Y124.667 E4.54993
G1 X164.449 Y125.612 E4.58231
G1 X164.133 Y126.532 E4.61466
G1 X163.755 Y127.385 E4.64569
G1 X163.408 Y128.031 E4.67008
G1 X163.139 Y128.492 E4.68784
G1 X162.6 Y129.325 E4.72084
G1 X162.023 Y130.066 E4.75207
G1 X161.323 Y130.815 E4.78617
G1 X160.843 Y131.283 E4.80847
G1 X160.119 Y131.927 E4.8407
G1 X159.483 Y132.406 E4.86718
G1 X158.792 Y132.869 E4.89484
G1 X158.34 Y133.148 E4.91251
G1 X157.372 Y133.68 E4.94925
G1 X156.745 Y133.978 E4.97234
G1 X156.27 Y134.189 E4.98962
G1 X155.344 Y134.552 E5.02271
G1 X154.462 Y134.849 E5.05366
G1 X153.719 Y135.07 E5.07944
G1 X153.146 Y135.219 E5.09913
G1 X152.375 Y135.397 E5.12545
G1 X151.579 Y135.555 E5.15244
G1 X151.134 Y135.63 E5.16745
G1 X150.402 Y135.732 E5.19203
G1 X149.335 Y135.856 E5.22776
G1 X148.702 Y135.91 E5.24889
G1 X147.272 Y135.979 E5.29651
G1 X145.964 Y135.999 E5.34002
G1 X86.046 Y135.999 E7.3329
G1 X84.566 Y135.976 E7.38213
G1 X83.88 Y135.948 E7.40497
G1 X82.739 Y135.864 E7.44302
G1 X81.846 Y135.772 E7.47288
G1 X81.273 Y135.694 E7.49211
G1 X80.28 Y135.531 E7.52558
G1 X79.575 Y135.392 E7.54948
G1 X79.01 Y135.26 E7.56878
G1 X78.293 Y135.076 E7.5934
G1 X77.73 Y134.914 E7.61288
G1 X77.224 Y134.752 E7.63055
G1 X76.492 Y134.497 E7.65634
G1 X75.759 Y134.207 E7.68255
G1 X75.091 Y133.909 E7.70688
G1 X74.613 Y133.679 E7.72453
G1 X73.623 Y133.135 E7.7621
G1 X73.085 Y132.793 E7.7833
G1 X71.592 Y131.802 E7.8429
G1 X69.459 Y130.431 E7.92724
G1 X66.922 Y128.902 E8.02576
G1 X65.635 Y128.146 E8.0754
G1 X64.8 Y127.616 E8.1083
G1 X64.255 Y127.245 E8.13022
G1 X63.665 Y126.808 E8.15464
G1 X62.862 Y126.177 E8.18861
G1 X62.234 Y125.641 E8.21607
G1 X61.613 Y125.064 E8.24427
G1 X61.054 Y124.515 E8.27033
G1 X60.471 Y123.896 E8.29861
G1 X59.903 Y123.237 E8.32754
G1 X59.46 Y122.695 E8.35083
G1 X58.909 Y121.958 E8.38143
G1 X58.406 Y121.216 E8.41125
G1 X58.085 Y120.717 E8.43098
G1 X57.611 Y119.905 E8.46225
G1 X57.26 Y119.238 E8.48732
G1 X56.913 Y118.537 E8.51334
G1 X56.542 Y117.679 E8.54443
G1 X56.134 Y116.598 E8.58286
G1 X56.011 Y116.24 E8.59545
G1 X55.727 Y115.265 E8.62922
G1 X55.442 Y114.075 E8.66992
G1 X55.219 Y112.81 E8.71265
G1 X55.082 Y111.571 E8.75411
G1 X55.048 Y111.141 E8.76845
G1 X55.015 Y110.248 E8.79818
G1 X55.026 Y109.439 E8.82508
G1 X55.062 Y108.639 E8.85172
G1 X55.144 Y107.714 E8.88261
G1 X55.254 Y106.94 E8.90861
G1 X55.379 Y106.222 E8.93285
G1 X55.599 Y105.232 E8.96658
G1 X55.838 Y104.357 E8.99675
G1 X56.03 Y103.711 E9.01916
G1 X56.347 Y102.828 E9.05037
G1 X56.691 Y101.988 E9.08056
G1 X56.996 Y101.3 E9.10559
G1 X57.413 Y100.471 E9.13645
G1 X57.789 Y99.8 E9.16203
G1 X58.203 Y99.105 E9.18894
G1 X58.727 Y98.317 E9.22042
G1 X59.137 Y97.754 E9.24358
G1 X59.692 Y97.031 E9.2739
G1 X60.252 Y96.365 E9.30284
G1 X60.901 Y95.662 E9.33466
G1 X61.372 Y95.178 E9.35712
G1 X61.945 Y94.633 E9.38342
G1 X62.401 Y94.232 E9.40362
G1 X63.162 Y93.593 E9.43667
G1 X63.746 Y93.14 E9.46125
G1 X64.449 Y92.64 E9.48995
G0 F6000 X64.672 Y92.972
G1 F1200 X65.354 Y92.514 E9.51727
G1 X65.907 Y92.168 E9.53897
G1 X68.21 Y90.822 E9.62769
G1 X70.348 Y89.497 E9.71135
G1 X73.377 Y87.492 E9.83216
G1 X73.792 Y87.232 E9.84845
G1 X74.73 Y86.71 E9.88415
G1 X75.405 Y86.388 E9.90903
G1 X75.862 Y86.184 E9.92567
G1 X76.632 Y85.876 E9.95326
G1 X77.319 Y85.637 E9.97745
G1 X77.803 Y85.482 E9.99435
G1 X78.392 Y85.312 E10.01474
G1 X79.229 Y85.1 E10.04346
G1 X79.682 Y84.997 E10.05891
G1 X80.504 Y84.834 E10.08678
G1 X80.91 Y84.767 E10.10047
G1 X81.652 Y84.663 E10.12539
G1 X82.682 Y84.544 E10.15988
G1 X83.31 Y84.491 E10.18084
G1 X84.751 Y84.421 E10.22882
G1 X86.034 Y84.401 E10.2715
G1 X145.802 Y84.4 E12.25939
G1 X147.344 Y84.422 E12.31069
G1 X148.086 Y84.451 E12.33538
G1 X149.48 Y84.562 E12.38189
G1 X150.078 Y84.629 E12.40191
G1 X151.164 Y84.784 E12.43839
G1 X151.785 Y84.889 E12.45934
G1 X152.244 Y84.983 E12.47493
G1 X153.153 Y85.196 E12.50598
G1 X153.575 Y85.306 E12.52048
G1 X154.12 Y85.463 E12.53935
G1 X154.922 Y85.723 E12.56739
G1 X155.331 Y85.867 E12.58181
G1 X156.084 Y86.164 E12.60873
G1 X156.729 Y86.455 E12.63227
G1 X157.19 Y86.677 E12.64929
G1 X158.111 Y87.179 E12.68417
G1 X158.663 Y87.525 E12.70584
G1 X159.093 Y87.81 E12.723
G1 X159.823 Y88.342 E12.75304
G1 X160.659 Y89.081 E12.79015
G1 X161.051 Y89.468 E12.80848
G1 X161.689 Y90.157 E12.83971
G1 X162.26 Y90.893 E12.87069
G1 X162.587 Y91.385 E12.89034
G1 X162.874 Y91.844 E12.90834
G1 X163.335 Y92.661 E12.93955
G1 X163.709 Y93.483 E12.96958
G1 X164.031 Y94.4 E13.00191
G1 X164.237 Y95.192 E13.02913
G1 X164.344 Y95.685 E13.0459
G1 X164.502 Y96.614 E13.07725
G1 X164.584 Y97.766 E13.11566
G1 X164.594 Y98.411 E13.13712
G1 X164.594 Y121.527 E13.90596
G1 X164.582 Y122.255 E13.93017
G1 X164.524 Y123.193 E13.96143
G1 X164.382 Y124.129 E13.99292
G1 X164.295 Y124.571 E14.0079
G1 X164.071 Y125.482 E14.0391
G1 X163.767 Y126.37 E14.07032
G1 X163.402 Y127.196 E14.10036
G1 X163.062 Y127.83 E14.12429
G1 X162.803 Y128.275 E14.14141
G1 X162.284 Y129.079 E14.17324
G1 X161.707 Y129.82 E14.20448
G1 X161.044 Y130.529 E14.23676
G1 X160.577 Y130.984 E14.25845
G1 X159.878 Y131.607 E14.28959
G1 X159.242 Y132.086 E14.31607
G1 X158.582 Y132.529 E14.34251
G1 X158.147 Y132.798 E14.35952
G1 X157.2 Y133.319 E14.39547
G1 X156.582 Y133.613 E14.41823
G1 X156.124 Y133.817 E14.43491
G1 X155.216 Y134.173 E14.46735
G1 X154.348 Y134.466 E14.49782
G1 X153.618 Y134.683 E14.52315
G1 X153.056 Y134.829 E14.54246
G1 X152.297 Y135.005 E14.56837
G1 X151.513 Y135.161 E14.59496
G1 X151.079 Y135.234 E14.6096
G1 X150.356 Y135.335 E14.63388
G1 X149.301 Y135.457 E14.6692
G1 X148.683 Y135.51 E14.68983
G1 X147.266 Y135.579 E14.73702
G1 X145.958 Y135.599 E14.78053
G1 X86.052 Y135.599 E16.77301
G1 X84.582 Y135.576 E16.82191
G1 X83.909 Y135.549 E16.84431
G1 X82.78 Y135.466 E16.88196
G1 X81.9 Y135.376 E16.91138
G1 X81.338 Y135.299 E16.93025
G1 X80.345 Y135.136 E16.96372
G1 X79.665 Y135.002 E16.98677
G1 X79.109 Y134.873 E17.00575
G1 X78.404 Y134.692 E17.02996
G1 X77.852 Y134.533 E17.04907
G1 X77.355 Y134.374 E17.06643
G1 X76.639 Y134.125 E17.09164
G1 X75.922 Y133.842 E17.11728
G1 X75.264 Y133.548 E17.14125
G1 X74.806 Y133.328 E17.15815
G1 X73.816 Y132.784 E17.19572
G1 X73.306 Y132.46 E17.21581
G1 X71.813 Y131.469 E17.27541
G1 X69.665 Y130.088 E17.36035
G1 X67.128 Y128.559 E17.45887
G1 X65.849 Y127.808 E17.5082
G1 X65.025 Y127.285 E17.54066
G1 X64.493 Y126.924 E17.56204
G1 X63.912 Y126.493 E17.58611
G1 X63.109 Y125.862 E17.62007
G1 X62.506 Y125.348 E17.64643
G1 X61.893 Y124.779 E17.67424
G1 X61.345 Y124.241 E17.69979
G1 X60.774 Y123.635 E17.72748
G1 X60.213 Y122.984 E17.75606
G1 X59.78 Y122.455 E17.7788
G1 X59.24 Y121.733 E17.80879
G1 X58.742 Y120.999 E17.83829
G1 X58.43 Y120.515 E17.85744
G1 X57.965 Y119.719 E17.8881
G1 X57.618 Y119.06 E17.91287
G1 X57.28 Y118.378 E17.93819
G1 X56.916 Y117.538 E17.96864
G1 X56.512 Y116.468 E18.00668
G1 X56.395 Y116.128 E18.01864
G1 X56.116 Y115.172 E18.05176
G1 X55.836 Y114.005 E18.09168
G1 X55.617 Y112.766 E18.13353
G1 X55.481 Y111.539 E18.17459
G1 X55.448 Y111.126 E18.18837
G1 X55.415 Y110.254 E18.21739
G1 X55.426 Y109.457 E18.2439
G1 X55.462 Y108.657 E18.27054
G1 X55.54 Y107.77 E18.30015
G1 X55.648 Y107.009 E18.32572
G1 X55.773 Y106.291 E18.34996
G1 X55.985 Y105.337 E18.38246
G1 X56.221 Y104.471 E18.41231
G1 X56.407 Y103.846 E18.434
G1 X56.717 Y102.98 E18.4646
G1 X57.057 Y102.15 E18.49443
G1 X57.353 Y101.48 E18.51879
G1 X57.762 Y100.667 E18.54906
G1 X58.133 Y100.005 E18.5743
G1 X58.547 Y99.31 E18.60121
G1 X59.051 Y98.552 E18.63148
G1 X59.454 Y97.997 E18.65429
G1 X59.998 Y97.288 E18.68402
G1 X60.546 Y96.636 E18.71235
G1 X61.187 Y95.941 E18.74379
G1 X61.648 Y95.468 E18.76576
G1 X62.21 Y94.933 E18.79157
G1 X62.658 Y94.538 E18.81143
G1 X63.407 Y93.909 E18.84396
G1 X63.978 Y93.466 E18.868
G1 X64.672 Y92.972 E18.89633
G0 F6000 X64.895 Y93.304
G1 F1200 X65.566 Y92.853 E18.92322
G1 X66.109 Y92.513 E18.94453
G1 X68.421 Y91.162 E19.0336
G1 X70.569 Y89.831 E19.11764
G1 X73.59 Y87.831 E19.23815
G1 X73.987 Y87.582 E19.25373
G1 X74.925 Y87.06 E19.28944
G1 X75.568 Y86.753 E19.31313
G1 X76.011 Y86.555 E19.32927
G1 X76.763 Y86.254 E19.35621
G1 X77.441 Y86.018 E19.38009
G1 X77.914 Y85.866 E19.39662
G1 X78.49 Y85.7 E19.41655
G1 X79.318 Y85.49 E19.44497
G1 X79.76 Y85.389 E19.46005
G1 X80.57 Y85.229 E19.48751
G1 X80.966 Y85.163 E19.50086
G1 X81.698 Y85.06 E19.52545
G1 X82.716 Y84.943 E19.55953
G1 X83.33 Y84.891 E19.58002
G1 X84.757 Y84.821 E19.62754
G1 X86.034 Y84.801 E19.67002
G1 X145.796 Y84.8 E21.65771
G1 X147.329 Y84.822 E21.7087
G1 X148.055 Y84.85 E21.73287
G1 X149.435 Y84.959 E21.77891
G1 X150.022 Y85.025 E21.79856
G1 X151.097 Y85.178 E21.83467
G1 X151.705 Y85.281 E21.85518
G1 X152.153 Y85.373 E21.87039
G1 X153.052 Y85.583 E21.9011
G1 X153.464 Y85.69 E21.91526
G1 X153.997 Y85.844 E21.93371
G1 X154.799 Y86.104 E21.96175
G1 X155.184 Y86.239 E21.97532
G1 X155.92 Y86.529 E22.00163
G1 X156.556 Y86.815 E22.02483
G1 X156.999 Y87.028 E22.04118
G1 X157.899 Y87.518 E22.07526
G1 X158.442 Y87.858 E22.09657
G1 X158.857 Y88.133 E22.11313
G1 X159.587 Y88.665 E22.14317
G1 X160.378 Y89.366 E22.17832
G1 X160.758 Y89.74 E22.19606
G1 X161.373 Y90.402 E22.22611
G1 X161.927 Y91.115 E22.25614
G1 X162.248 Y91.597 E22.2754
G1 X162.526 Y92.041 E22.29283
G1 X162.971 Y92.827 E22.32287
G1 X163.345 Y93.649 E22.3529
G1 X163.644 Y94.501 E22.38294
G1 X163.846 Y95.277 E22.40961
G1 X163.95 Y95.753 E22.42581
G1 X164.103 Y96.643 E22.45585
G1 X164.184 Y97.772 E22.49349
G1 X164.194 Y98.417 E22.51495
G1 X164.194 Y121.521 E23.28339
G1 X164.183 Y122.231 E23.30701
G1 X164.129 Y123.133 E23.33706
G1 X163.99 Y124.051 E23.36794
G1 X163.906 Y124.476 E23.38235
G1 X163.692 Y125.353 E23.41238
G1 X163.401 Y126.208 E23.44242
G1 X163.036 Y127.034 E23.47245
G1 X162.716 Y127.629 E23.49492
G1 X162.457 Y128.074 E23.51205
G1 X161.968 Y128.834 E23.54211
G1 X161.415 Y129.547 E23.57212
G1 X160.765 Y130.243 E23.60379
G1 X160.311 Y130.686 E23.62489
G1 X159.637 Y131.288 E23.65495
G1 X159.019 Y131.754 E23.68069
G1 X158.371 Y132.189 E23.70665
G1 X157.954 Y132.448 E23.72298
G1 X157.028 Y132.958 E23.75814
G1 X156.419 Y133.248 E23.78057
G1 X155.978 Y133.445 E23.79664
G1 X155.088 Y133.794 E23.82843
G1 X154.234 Y134.083 E23.85842
G1 X153.518 Y134.296 E23.88327
G1 X152.965 Y134.439 E23.90226
G1 X152.219 Y134.613 E23.92774
G1 X151.447 Y134.767 E23.95392
G1 X151.024 Y134.838 E23.96819
G1 X150.31 Y134.938 E23.99217
G1 X149.267 Y135.058 E24.02709
G1 X148.663 Y135.11 E24.04725
G1 X147.26 Y135.179 E24.09397
G1 X145.952 Y135.199 E24.13748
G1 X86.058 Y135.199 E26.12956
G1 X84.598 Y135.176 E26.17813
G1 X83.938 Y135.15 E26.2001
G1 X82.82 Y135.068 E26.23738
G1 X81.955 Y134.98 E26.2663
G1 X81.403 Y134.904 E26.28483
G1 X80.41 Y134.741 E26.3183
G1 X79.755 Y134.612 E26.34051
G1 X79.208 Y134.485 E26.35918
G1 X78.515 Y134.308 E26.38297
G1 X77.974 Y134.152 E26.4017
G1 X77.486 Y133.996 E26.41874
G1 X76.786 Y133.753 E26.44339
G1 X76.085 Y133.477 E26.46844
G1 X75.437 Y133.187 E26.49206
G1 X74.999 Y132.977 E26.50821
G1 X74.009 Y132.433 E26.54578
G1 X73.527 Y132.127 E26.56477
G1 X72.034 Y131.136 E26.62437
G1 X69.871 Y129.745 E26.70991
G1 X67.334 Y128.216 E26.80843
G1 X66.063 Y127.47 E26.85745
G1 X65.249 Y126.954 E26.8895
G1 X64.731 Y126.603 E26.91031
G1 X64.159 Y126.179 E26.93399
G1 X63.368 Y125.557 E26.96746
G1 X62.778 Y125.055 E26.99323
G1 X62.173 Y124.493 E27.02069
G1 X61.636 Y123.967 E27.04569
G1 X61.077 Y123.374 E27.0728
G1 X60.522 Y122.73 E27.10107
G1 X60.1 Y122.215 E27.12322
G1 X59.571 Y121.508 E27.15259
G1 X59.078 Y120.782 E27.18178
G1 X58.775 Y120.313 E27.20035
G1 X58.319 Y119.533 E27.2304
G1 X57.976 Y118.882 E27.25487
G1 X57.647 Y118.219 E27.27949
G1 X57.29 Y117.397 E27.3093
G1 X56.89 Y116.338 E27.34695
G1 X56.779 Y116.016 E27.35828
G1 X56.505 Y115.078 E27.39078
G1 X56.23 Y113.935 E27.42988
G1 X56.015 Y112.722 E27.47085
G1 X55.88 Y111.507 E27.51151
G1 X55.848 Y111.111 E27.52473
G1 X55.815 Y110.26 E27.55305
G1 X55.826 Y109.475 E27.57916
G1 X55.862 Y108.675 E27.6058
G1 X55.936 Y107.826 E27.63414
G1 X56.042 Y107.077 E27.6593
G1 X56.163 Y106.378 E27.6829
G1 X56.371 Y105.442 E27.71479
G1 X56.604 Y104.585 E27.74433
G1 X56.784 Y103.981 E27.76529
G1 X57.094 Y103.115 E27.79588
G1 X57.423 Y102.311 E27.82478
G1 X57.71 Y101.66 E27.84844
G1 X58.111 Y100.863 E27.87811
G1 X58.477 Y100.21 E27.90301
G1 X58.891 Y99.515 E27.92992
G1 X59.374 Y98.787 E27.95898
G1 X59.772 Y98.24 E27.98148
G1 X60.304 Y97.545 E28.01059
G1 X60.84 Y96.907 E28.0383
G1 X61.474 Y96.22 E28.06939
G1 X61.924 Y95.758 E28.09084
G1 X62.475 Y95.233 E28.11616
G1 X62.915 Y94.844 E28.13569
G1 X63.652 Y94.225 E28.1677
G1 X64.21 Y93.792 E28.19119
G1 X64.895 Y93.304 E28.21917
G1 F1500 E21.71917
;MESH:LLAVEROS 31 Mar 3mm TH.stl
G0 F6000 X72.453 Y103.854
G0 X79.679 Y118.034
;TYPE:WALL-INNER
G1 F1500 E28.21917
