;FLAVOR:Marlin
;TIME:7474
;Filament used: 2.92675m
;Layer height: 0.12
;MINX:32.095
;MINY:114.684
;MINZ:0.12
;MAXX:141.474
;MAXY:166.212
;MAXZ:6
;TARGET_MACHINE.NAME:Creality Ender-3 Pro
;Generated with Cura_SteamEngine 5.6.0
M82 ;absolute extrusion mode
; Ender 3 Custom Start G-code
G92 E0 ; Reset Extruder
G28 ; Home all axes
G1 Z5.0 F3000 ; Move Z Axis up a bit during heating to not damage bed
M104 S175 ; Start heating up the nozzle most of the way
M190 S60 ; Start heating the bed, wait until target temperature reached
M109 S200 ; Finish heating the nozzle
G1 Z2.0 F3000 ; Move Z Axis up little to prevent scratching of Heat Bed
G1 X0.1 Y20 Z0.3 F5000.0 ; Move to start position
G1 X0.1 Y200.0 Z0.3 F1500.0 E15 ; Draw the first line
G1 X0.4 Y200.0 Z0.3 F5000.0 ; Move to side a little
G1 X0.4 Y20 Z0.3 F1500.0 E30 ; Draw the second line
G92 E0 ; Reset Extruder
G1 Z2.0 F3000 ; Move Z Axis up little to prevent scratching of Heat Bed
G1 X5 Y20 Z0.3 F5000.0 ; Move over to prevent blob squish
G92 E0
G92 E0
G1 F1500 E-6.5
;LAYER_COUNT:50
;LAYER:0
M107
G0 F6000 X53.13 Y116.469 Z0.12
;TYPE:SKIRT
G1 F1500 E0
G1 F1200 X53.91 Y116.15 E0.01682
G1 X54.606 Y115.904 E0.03155
G1 X55.114 Y115.742 E0.04219
G1 X55.7 Y115.572 E0.05437
G1 X56.589 Y115.347 E0.07267
G1 X57.396 Y115.172 E0.08914
G1 X58.158 Y115.038 E0.10458
G1 X58.9 Y114.935 E0.11953
G1 X59.829 Y114.827 E0.1382
G1 X60.434 Y114.775 E0.15032
G1 X61.849 Y114.705 E0.17859
G1 X63.293 Y114.684 E0.20741
G1 X123.038 Y114.686 E1.39968
G1 X124.424 Y114.707 E1.42735
G1 X125.071 Y114.733 E1.44027
G1 X126.235 Y114.817 E1.46356
G1 X126.891 Y114.889 E1.47673
G1 X127.955 Y115.037 E1.49817
G1 X128.52 Y115.131 E1.5096
G1 X129.224 Y115.27 E1.52392
G1 X129.851 Y115.413 E1.53675
G1 X130.391 Y115.554 E1.54789
G1 X130.959 Y115.718 E1.55969
G1 X131.529 Y115.9 E1.57163
G1 X132.207 Y116.138 E1.58597
G1 X132.824 Y116.381 E1.5992
G1 X133.45 Y116.658 E1.61286
G1 X133.912 Y116.879 E1.62308
G1 X135.117 Y117.552 E1.65062
G1 X135.753 Y117.963 E1.66574
G1 X136.553 Y118.535 E1.68536
G1 X137.475 Y119.344 E1.70984
G1 X137.846 Y119.709 E1.72023
G1 X138.507 Y120.422 E1.73963
G1 X139.062 Y121.135 E1.75766
G1 X139.429 Y121.683 E1.77082
G1 X139.703 Y122.121 E1.78113
G1 X140.181 Y122.97 E1.80057
G1 X140.581 Y123.858 E1.82001
G1 X140.901 Y124.773 E1.83935
G1 X141.111 Y125.577 E1.85594
G1 X141.215 Y126.057 E1.86574
G1 X141.38 Y127.027 E1.88537
G1 X141.464 Y128.219 E1.90922
G1 X141.474 Y128.891 E1.92263
G1 X141.474 Y151.981 E2.38342
G1 X141.461 Y152.727 E2.39831
G1 X141.399 Y153.7 E2.41777
G1 X141.251 Y154.672 E2.43739
G1 X141.165 Y155.098 E2.44606
G1 X140.931 Y156.041 E2.46545
G1 X140.639 Y156.896 E2.48348
G1 X140.218 Y157.843 E2.50416
G1 X139.898 Y158.436 E2.51761
G1 X139.642 Y158.875 E2.52775
G1 X139.113 Y159.692 E2.54717
G1 X138.514 Y160.462 E2.56664
G1 X137.853 Y161.171 E2.58598
G1 X137.362 Y161.65 E2.59967
G1 X136.655 Y162.279 E2.61856
G1 X135.547 Y163.077 E2.64581
G1 X135.015 Y163.411 E2.65834
G1 X133.742 Y164.097 E2.6872
G1 X133.021 Y164.427 E2.70302
G1 X132.277 Y164.733 E2.71908
G1 X131.557 Y164.989 E2.73433
G1 X131.064 Y165.147 E2.74466
G1 X130.471 Y165.319 E2.75698
G1 X129.9 Y165.468 E2.76876
G1 X129.141 Y165.643 E2.7843
G1 X128.399 Y165.79 E2.7994
G1 X127.593 Y165.917 E2.81568
G1 X126.323 Y166.069 E2.8412
G1 X125.718 Y166.121 E2.85332
G1 X124.303 Y166.191 E2.88159
G1 X122.859 Y166.212 E2.91041
G1 X63.114 Y166.21 E4.10269
G1 X61.728 Y166.189 E4.13035
G1 X61.081 Y166.163 E4.14327
G1 X59.917 Y166.079 E4.16656
G1 X59.261 Y166.007 E4.17973
G1 X58.195 Y165.858 E4.20121
G1 X57.612 Y165.76 E4.21301
G1 X56.917 Y165.623 E4.22715
G1 X56.31 Y165.484 E4.23957
G1 X55.766 Y165.343 E4.25079
G1 X55.197 Y165.178 E4.26261
G1 X54.327 Y164.896 E4.28086
G1 X53.967 Y164.766 E4.2885
G1 X53.353 Y164.526 E4.30166
G1 X52.709 Y164.24 E4.31572
G1 X52.218 Y164.005 E4.32658
G1 X51.166 Y163.427 E4.35054
G1 X50.605 Y163.077 E4.36373
G1 X48.401 Y161.744 E4.41513
G1 X46.195 Y160.49 E4.46577
G1 X44.047 Y159.354 E4.51426
G1 X43.6 Y159.104 E4.52448
G1 X42.524 Y158.468 E4.54943
G1 X41.869 Y158.057 E4.56486
G1 X41.223 Y157.612 E4.58051
G1 X40.734 Y157.247 E4.59269
G1 X39.895 Y156.587 E4.61399
G1 X39.275 Y156.054 E4.63031
G1 X38.667 Y155.487 E4.6469
G1 X38.138 Y154.967 E4.6617
G1 X37.552 Y154.345 E4.67876
G1 X37.186 Y153.925 E4.68987
G1 X36.55 Y153.154 E4.70982
G1 X35.99 Y152.406 E4.72847
G1 X35.487 Y151.664 E4.74636
G1 X35.166 Y151.165 E4.7582
G1 X34.692 Y150.353 E4.77696
G1 X34.341 Y149.686 E4.792
G1 X33.994 Y148.985 E4.80761
G1 X33.623 Y148.129 E4.82623
G1 X33.216 Y147.052 E4.8492
G1 X33.088 Y146.681 E4.85704
G1 X32.821 Y145.768 E4.87602
G1 X32.603 Y144.886 E4.89415
G1 X32.468 Y144.284 E4.90646
G1 X32.31 Y143.326 E4.92584
G1 X32.197 Y142.351 E4.94543
G1 X32.128 Y141.587 E4.96073
G1 X32.095 Y140.695 E4.97855
G1 X32.106 Y139.902 E4.99437
G1 X32.142 Y139.104 E5.01032
G1 X32.226 Y138.165 E5.02913
G1 X32.34 Y137.364 E5.04527
G1 X32.462 Y136.659 E5.05955
G1 X32.68 Y135.68 E5.07957
G1 X32.919 Y134.805 E5.09767
G1 X33.111 Y134.159 E5.11112
G1 X33.428 Y133.276 E5.12984
G1 X33.772 Y132.436 E5.14796
G1 X34.077 Y131.748 E5.16297
G1 X34.494 Y130.919 E5.18149
G1 X34.87 Y130.248 E5.19684
G1 X35.284 Y129.553 E5.21299
G1 X35.808 Y128.765 E5.23187
G1 X36.218 Y128.202 E5.24577
G1 X36.773 Y127.479 E5.26396
G1 X37.333 Y126.813 E5.28132
G1 X37.982 Y126.11 E5.30042
G1 X38.453 Y125.626 E5.31389
G1 X39.026 Y125.081 E5.32967
G1 X39.482 Y124.68 E5.34179
G1 X40.243 Y124.041 E5.36162
G1 X40.827 Y123.588 E5.37637
G1 X41.53 Y123.088 E5.39359
G1 X42.221 Y122.623 E5.41021
G1 X42.759 Y122.286 E5.42288
G1 X43.44 Y121.896 E5.43854
G1 X45.179 Y120.961 E5.47794
G1 X47.489 Y119.683 E5.53062
G1 X50.53 Y117.866 E5.60132
G1 X51.196 Y117.451 E5.61698
G1 X52.401 Y116.802 E5.64429
G1 X53.13 Y116.469 E5.66029
G0 F6000 X53.282 Y116.839
G1 F1200 X54.043 Y116.527 E5.6767
G1 X54.728 Y116.285 E5.6912
G1 X55.225 Y116.126 E5.70161
G1 X55.798 Y115.96 E5.71351
G1 X56.674 Y115.738 E5.73155
G1 X57.466 Y115.566 E5.74772
G1 X58.213 Y115.434 E5.76286
G1 X58.946 Y115.332 E5.77763
G1 X59.863 Y115.226 E5.79605
G1 X60.454 Y115.175 E5.80789
G1 X61.855 Y115.105 E5.83588
G1 X63.293 Y115.084 E5.86458
G1 X123.032 Y115.086 E7.05674
G1 X124.408 Y115.107 E7.0842
G1 X125.042 Y115.132 E7.09686
G1 X126.192 Y115.215 E7.11987
G1 X126.836 Y115.285 E7.1328
G1 X127.889 Y115.432 E7.15402
G1 X128.454 Y115.526 E7.16545
G1 X129.135 Y115.66 E7.1793
G1 X129.75 Y115.8 E7.19189
G1 X130.28 Y115.938 E7.20281
G1 X130.837 Y116.099 E7.21439
G1 X131.397 Y116.278 E7.22612
G1 X132.06 Y116.51 E7.24014
G1 X132.662 Y116.747 E7.25305
G1 X133.277 Y117.019 E7.26647
G1 X133.739 Y117.24 E7.27669
G1 X134.9 Y117.888 E7.30322
G1 X135.521 Y118.289 E7.31797
G1 X136.289 Y118.836 E7.33679
G1 X137.195 Y119.63 E7.36083
G1 X137.553 Y119.981 E7.37083
G1 X138.191 Y120.668 E7.38954
G1 X138.746 Y121.381 E7.40758
G1 X139.09 Y121.895 E7.41992
G1 X139.355 Y122.318 E7.42988
G1 X139.817 Y123.135 E7.44861
G1 X140.204 Y123.99 E7.46734
G1 X140.514 Y124.874 E7.48603
G1 X140.72 Y125.662 E7.50229
G1 X140.821 Y126.125 E7.51174
G1 X140.981 Y127.055 E7.53058
G1 X141.064 Y128.225 E7.55398
G1 X141.074 Y128.897 E7.56739
G1 X141.074 Y151.974 E8.02792
G1 X141.062 Y152.702 E8.04245
G1 X141.004 Y153.64 E8.06121
G1 X140.859 Y154.593 E8.08044
G1 X140.777 Y155.002 E8.08877
G1 X140.552 Y155.912 E8.10747
G1 X140.26 Y156.767 E8.1255
G1 X139.866 Y157.653 E8.14485
G1 X139.552 Y158.235 E8.15805
G1 X139.306 Y158.658 E8.16782
G1 X138.797 Y159.447 E8.18655
G1 X138.221 Y160.189 E8.2053
G1 X137.56 Y160.898 E8.22464
G1 X137.096 Y161.351 E8.23758
G1 X136.389 Y161.98 E8.25647
G1 X135.334 Y162.738 E8.28239
G1 X134.802 Y163.072 E8.29493
G1 X133.576 Y163.733 E8.32272
G1 X132.868 Y164.057 E8.33826
G1 X132.143 Y164.356 E8.35391
G1 X131.435 Y164.608 E8.36891
G1 X130.953 Y164.763 E8.37901
G1 X130.37 Y164.932 E8.39113
G1 X129.81 Y165.078 E8.40268
G1 X129.063 Y165.251 E8.41798
G1 X128.337 Y165.395 E8.43275
G1 X127.546 Y165.52 E8.44873
G1 X126.289 Y165.67 E8.47399
G1 X125.698 Y165.721 E8.48583
G1 X124.297 Y165.791 E8.51382
G1 X122.859 Y165.812 E8.54252
G1 X63.12 Y165.81 E9.73468
G1 X61.744 Y165.789 E9.76214
G1 X61.11 Y165.764 E9.7748
G1 X59.96 Y165.681 E9.79781
G1 X59.316 Y165.611 E9.81074
G1 X58.262 Y165.464 E9.83198
G1 X57.689 Y165.367 E9.84358
G1 X57.006 Y165.233 E9.85747
G1 X56.41 Y165.097 E9.86967
G1 X55.877 Y164.959 E9.88065
G1 X55.321 Y164.798 E9.8922
G1 X54.462 Y164.519 E9.91023
G1 X54.113 Y164.394 E9.91763
G1 X53.515 Y164.16 E9.93044
G1 X52.881 Y163.879 E9.94428
G1 X52.41 Y163.654 E9.9547
G1 X51.378 Y163.088 E9.97819
G1 X50.817 Y162.738 E9.99138
G1 X48.599 Y161.396 E10.04311
G1 X46.393 Y160.142 E10.09375
G1 X44.242 Y159.005 E10.14231
G1 X43.804 Y158.76 E10.15232
G1 X42.737 Y158.129 E10.17706
G1 X42.082 Y157.718 E10.19249
G1 X41.462 Y157.291 E10.20751
G1 X40.981 Y156.933 E10.21948
G1 X40.156 Y156.284 E10.24043
G1 X39.548 Y155.762 E10.25642
G1 X38.947 Y155.201 E10.27283
G1 X38.429 Y154.693 E10.28731
G1 X37.854 Y154.083 E10.30403
G1 X37.495 Y153.67 E10.31495
G1 X36.859 Y152.899 E10.3349
G1 X36.321 Y152.181 E10.3528
G1 X35.823 Y151.447 E10.37051
G1 X35.511 Y150.963 E10.382
G1 X35.046 Y150.167 E10.40039
G1 X34.699 Y149.508 E10.41526
G1 X34.361 Y148.826 E10.43045
G1 X33.997 Y147.987 E10.4487
G1 X33.594 Y146.922 E10.47142
G1 X33.472 Y146.568 E10.47889
G1 X33.209 Y145.672 E10.49753
G1 X32.993 Y144.799 E10.51548
G1 X32.863 Y144.219 E10.52734
G1 X32.705 Y143.261 E10.54671
G1 X32.595 Y142.315 E10.56572
G1 X32.528 Y141.572 E10.58061
G1 X32.495 Y140.701 E10.598
G1 X32.506 Y139.92 E10.61359
G1 X32.542 Y139.122 E10.62953
G1 X32.622 Y138.221 E10.64758
G1 X32.734 Y137.432 E10.66348
G1 X32.852 Y136.746 E10.67737
G1 X33.066 Y135.785 E10.69702
G1 X33.302 Y134.919 E10.71493
G1 X33.488 Y134.294 E10.72795
G1 X33.798 Y133.428 E10.7463
G1 X34.138 Y132.598 E10.7642
G1 X34.434 Y131.928 E10.77882
G1 X34.843 Y131.115 E10.79698
G1 X35.214 Y130.453 E10.81213
G1 X35.628 Y129.758 E10.82827
G1 X36.132 Y129 E10.84643
G1 X36.535 Y128.445 E10.86012
G1 X37.079 Y127.736 E10.87796
G1 X37.627 Y127.084 E10.89495
G1 X38.268 Y126.389 E10.91382
G1 X38.729 Y125.916 E10.927
G1 X39.291 Y125.381 E10.94249
G1 X39.739 Y124.986 E10.95441
G1 X40.488 Y124.357 E10.97392
G1 X41.059 Y123.914 E10.98835
G1 X41.753 Y123.42 E11.00535
G1 X42.434 Y122.962 E11.02172
G1 X42.958 Y122.633 E11.03407
G1 X43.629 Y122.248 E11.04951
G1 X45.373 Y121.311 E11.08902
G1 X47.683 Y120.033 E11.1417
G1 X50.742 Y118.205 E11.21282
G1 X51.386 Y117.803 E11.22797
G1 X52.567 Y117.166 E11.25474
G1 X53.282 Y116.839 E11.27043
G0 F6000 X53.434 Y117.209
G1 F1200 X54.176 Y116.904 E11.28644
G1 X54.85 Y116.666 E11.30071
G1 X55.336 Y116.51 E11.31089
G1 X55.896 Y116.348 E11.32253
G1 X56.759 Y116.129 E11.3403
G1 X57.536 Y115.96 E11.35616
G1 X58.268 Y115.83 E11.371
G1 X58.992 Y115.729 E11.38559
G1 X59.897 Y115.625 E11.40377
G1 X60.488 Y115.574 E11.41561
G1 X61.861 Y115.505 E11.44304
G1 X63.293 Y115.484 E11.47162
G1 X123.026 Y115.486 E12.66366
G1 X124.393 Y115.507 E12.69094
G1 X125.013 Y115.531 E12.70332
G1 X126.149 Y115.613 E12.72605
G1 X126.781 Y115.681 E12.73874
G1 X127.823 Y115.826 E12.75973
G1 X128.377 Y115.919 E12.77094
G1 X129.046 Y116.05 E12.78454
G1 X129.649 Y116.187 E12.79689
G1 X130.169 Y116.322 E12.80761
G1 X130.715 Y116.48 E12.81895
G1 X131.265 Y116.656 E12.83047
G1 X131.928 Y116.888 E12.84449
G1 X132.5 Y117.113 E12.85676
G1 X133.105 Y117.38 E12.86995
G1 X133.544 Y117.589 E12.87966
G1 X134.683 Y118.224 E12.90568
G1 X135.29 Y118.615 E12.92009
G1 X136.026 Y119.137 E12.9381
G1 X136.915 Y119.915 E12.96167
G1 X137.26 Y120.254 E12.97132
G1 X137.875 Y120.914 E12.98933
G1 X138.43 Y121.627 E13.00736
G1 X138.751 Y122.108 E13.0189
G1 X139.007 Y122.516 E13.02851
G1 X139.453 Y123.301 E13.04653
G1 X139.827 Y124.123 E13.06455
G1 X140.127 Y124.975 E13.08258
G1 X140.329 Y125.748 E13.09852
G1 X140.427 Y126.194 E13.10763
G1 X140.582 Y127.084 E13.12566
G1 X140.664 Y128.231 E13.14861
G1 X140.674 Y128.903 E13.16202
G1 X140.674 Y151.968 E13.62231
G1 X140.663 Y152.678 E13.63648
G1 X140.609 Y153.58 E13.65451
G1 X140.467 Y154.515 E13.67338
G1 X140.389 Y154.906 E13.68134
G1 X140.173 Y155.783 E13.69936
G1 X139.881 Y156.638 E13.71739
G1 X139.514 Y157.463 E13.73541
G1 X139.206 Y158.034 E13.74836
G1 X138.969 Y158.442 E13.75778
G1 X138.481 Y159.202 E13.7758
G1 X137.928 Y159.916 E13.79382
G1 X137.28 Y160.612 E13.8128
G1 X136.829 Y161.053 E13.82539
G1 X136.156 Y161.655 E13.84341
G1 X135.121 Y162.399 E13.86885
G1 X134.589 Y162.733 E13.88138
G1 X133.41 Y163.369 E13.90811
G1 X132.715 Y163.687 E13.92337
G1 X132.009 Y163.979 E13.93861
G1 X131.312 Y164.227 E13.95338
G1 X130.841 Y164.379 E13.96325
G1 X130.27 Y164.545 E13.97512
G1 X129.719 Y164.688 E13.98648
G1 X128.985 Y164.859 E14.00152
G1 X128.274 Y165 E14.01599
G1 X127.499 Y165.123 E14.03164
G1 X126.255 Y165.271 E14.05665
G1 X125.664 Y165.322 E14.06848
G1 X124.291 Y165.391 E14.09592
G1 X122.859 Y165.412 E14.1245
G1 X63.126 Y165.41 E15.31653
G1 X61.759 Y165.389 E15.34382
G1 X61.139 Y165.365 E15.3562
G1 X60.003 Y165.283 E15.37893
G1 X59.371 Y165.215 E15.39161
G1 X58.329 Y165.07 E15.41261
G1 X57.766 Y164.975 E15.424
G1 X57.095 Y164.843 E15.43765
G1 X56.51 Y164.71 E15.44962
G1 X55.988 Y164.575 E15.46038
G1 X55.445 Y164.418 E15.47166
G1 X54.596 Y164.142 E15.48948
G1 X54.259 Y164.022 E15.49662
G1 X53.677 Y163.794 E15.50909
G1 X53.053 Y163.518 E15.52271
G1 X52.602 Y163.303 E15.53268
G1 X51.59 Y162.749 E15.5557
G1 X51.029 Y162.399 E15.5689
G1 X48.797 Y161.048 E15.62096
G1 X46.591 Y159.794 E15.6716
G1 X44.437 Y158.656 E15.72022
G1 X44.008 Y158.416 E15.73003
G1 X42.95 Y157.79 E15.75456
G1 X42.309 Y157.388 E15.76966
G1 X41.701 Y156.97 E15.78438
G1 X41.228 Y156.618 E15.79615
G1 X40.416 Y155.98 E15.81676
G1 X39.821 Y155.47 E15.83239
G1 X39.227 Y154.915 E15.84862
G1 X38.72 Y154.419 E15.86277
G1 X38.156 Y153.821 E15.87918
G1 X37.803 Y153.415 E15.88991
G1 X37.179 Y152.659 E15.90947
G1 X36.652 Y151.956 E15.92701
G1 X36.159 Y151.23 E15.94452
G1 X35.856 Y150.761 E15.95566
G1 X35.4 Y149.981 E15.97369
G1 X35.057 Y149.33 E15.98838
G1 X34.728 Y148.667 E16.00315
G1 X34.371 Y147.845 E16.02103
G1 X33.972 Y146.791 E16.04352
G1 X33.856 Y146.455 E16.05062
G1 X33.597 Y145.576 E16.0689
G1 X33.383 Y144.711 E16.08669
G1 X33.258 Y144.154 E16.09808
G1 X33.1 Y143.196 E16.11745
G1 X32.993 Y142.279 E16.13588
G1 X32.928 Y141.556 E16.15037
G1 X32.895 Y140.707 E16.16732
G1 X32.906 Y139.938 E16.18267
G1 X32.942 Y139.14 E16.19861
G1 X33.018 Y138.277 E16.2159
G1 X33.128 Y137.5 E16.23156
G1 X33.243 Y136.833 E16.24507
G1 X33.452 Y135.89 E16.26434
G1 X33.685 Y135.033 E16.28206
G1 X33.865 Y134.429 E16.29464
G1 X34.175 Y133.563 E16.313
G1 X34.504 Y132.759 E16.33033
G1 X34.791 Y132.108 E16.34453
G1 X35.192 Y131.311 E16.36234
G1 X35.558 Y130.658 E16.37727
G1 X35.972 Y129.963 E16.39342
G1 X36.455 Y129.235 E16.41085
G1 X36.853 Y128.688 E16.42435
G1 X37.385 Y127.993 E16.44182
G1 X37.921 Y127.355 E16.45845
G1 X38.555 Y126.668 E16.4771
G1 X39.005 Y126.206 E16.48997
G1 X39.556 Y125.681 E16.50516
G1 X39.996 Y125.292 E16.51688
G1 X40.733 Y124.673 E16.53609
G1 X41.291 Y124.24 E16.55018
G1 X41.976 Y123.752 E16.56697
G1 X42.647 Y123.301 E16.5831
G1 X43.157 Y122.98 E16.59513
G1 X43.818 Y122.6 E16.61034
G1 X45.567 Y121.661 E16.64996
G1 X47.877 Y120.383 E16.70264
G1 X50.954 Y118.544 E16.77418
G1 X51.576 Y118.155 E16.78882
G1 X52.734 Y117.53 E16.81508
G1 X53.434 Y117.209 E16.83045
G1 F1500 E10.33045
;MESH:LLAVERO THIAGO 31 Mar.stl
G0 F6000 X54.96 Y131.828
G0 X58.134 Y132.299
G0 X59.788 Y132.692
G0 X59.853 Y148.137
G0 X59.765 Y148.137
;TYPE:WALL-INNER
G1 F1500 E16.83045
