;FLAVOR:Marlin
;TIME:4396
;Filament used: 2.74413m
;Layer height: 0.2
;MINX:79.007
;MINY:18.251
;MINZ:0.2
;MAXX:155.923
;MAXY:201.738
;MAXZ:3.2
;TARGET_MACHINE.NAME:Creality Ender-3 Pro
;Generated with Cura_SteamEngine 5.6.0
M82 ;absolute extrusion mode
; Ender 3 Custom Start G-code
G92 E0 ; Reset Extruder
G28 ; Home all axes
G1 Z5.0 F3000 ; Move Z Axis up a bit during heating to not damage bed
M104 S175 ; Start heating up the nozzle most of the way
M190 S60 ; Start heating the bed, wait until target temperature reached
M109 S200 ; Finish heating the nozzle
G1 Z2.0 F3000 ; Move Z Axis up little to prevent scratching of Heat Bed
G1 X0.1 Y20 Z0.3 F5000.0 ; Move to start position
G1 X0.1 Y200.0 Z0.3 F1500.0 E15 ; Draw the first line
G1 X0.4 Y200.0 Z0.3 F5000.0 ; Move to side a little
G1 X0.4 Y20 Z0.3 F1500.0 E30 ; Draw the second line
G92 E0 ; Reset Extruder
G1 Z2.0 F3000 ; Move Z Axis up little to prevent scratching of Heat Bed
G1 X5 Y20 Z0.3 F5000.0 ; Move over to prevent blob squish
G92 E0
G92 E0
G1 F1500 E-6.5
;LAYER_COUNT:16
;LAYER:0
M107
G0 F6000 X79.457 Y26.177 Z0.2
;TYPE:SKIRT
G1 F1500 E0
G1 F1200 X79.759 Y25.288 E0.03123
G1 X80.166 Y24.366 E0.06475
G1 X80.637 Y23.514 E0.09713
G1 X81.182 Y22.705 E0.12957
G1 X81.773 Y21.977 E0.16076
G1 X82.475 Y21.252 E0.19432
G1 X83.185 Y20.638 E0.22554
G1 X84.004 Y20.048 E0.25912
G1 X84.843 Y19.552 E0.29153
G1 X85.657 Y19.161 E0.32157
G1 X86.634 Y18.793 E0.35629
G1 X87.538 Y18.543 E0.38749
G1 X88.54 Y18.36 E0.42137
G1 X89.711 Y18.264 E0.46044
G1 X90.318 Y18.251 E0.48064
G1 X129.276 Y18.251 E1.77639
G1 X130.155 Y18.264 E1.80563
G1 X131.127 Y18.323 E1.83801
G1 X132.09 Y18.469 E1.87041
G1 X133.037 Y18.7 E1.90283
G1 X133.959 Y19.014 E1.93523
G1 X134.85 Y19.408 E1.96763
G1 X135.7 Y19.877 E1.99992
G1 X136.451 Y20.379 E2.02996
G1 X137.266 Y21.037 E2.0648
G1 X137.964 Y21.715 E2.09717
G1 X138.6 Y22.452 E2.12954
G1 X139.17 Y23.242 E2.16195
G1 X139.632 Y24.018 E2.19198
G1 X140.086 Y24.96 E2.22676
G1 X140.415 Y25.838 E2.25795
G1 X140.684 Y26.811 E2.29152
G1 X140.859 Y27.768 E2.32388
G1 X140.949 Y28.729 E2.35599
G1 X140.961 Y29.451 E2.38
G1 X140.947 Y30.168 E2.40385
G1 X140.765 Y35.437 E2.57921
G1 X140.725 Y36.853 E2.62632
G1 X140.695 Y39.387 E2.71061
G1 X140.738 Y41.903 E2.7943
G1 X140.853 Y44.443 E2.87887
G1 X141.035 Y46.933 E2.96191
G1 X141.292 Y49.459 E3.04636
G1 X141.617 Y51.949 E3.12988
G1 X142.011 Y54.424 E3.21323
G1 X142.471 Y56.861 E3.29572
G1 X143.007 Y59.336 E3.37995
G1 X143.62 Y61.801 E3.46443
G1 X144.29 Y64.213 E3.54769
G1 X145.042 Y66.645 E3.63236
G1 X145.844 Y69.002 E3.71517
G1 X146.735 Y71.399 E3.80022
G1 X147.761 Y73.94 E3.89136
G1 X148.063 Y74.792 E3.92143
G1 X148.321 Y75.796 E3.95591
G1 X148.441 Y76.48 E3.97901
G1 X148.594 Y77.555 E4.01512
G1 X148.71 Y78.465 E4.04563
G1 X149.095 Y80.931 E4.12864
G1 X149.556 Y83.413 E4.21261
G1 X150.074 Y85.819 E4.29447
G1 X150.679 Y88.294 E4.37921
G1 X151.352 Y90.736 E4.46346
G1 X152.093 Y93.161 E4.5478
G1 X152.899 Y95.556 E4.63184
G1 X153.764 Y97.904 E4.71507
G1 X154.635 Y100.082 E4.79309
G1 X154.896 Y100.71 E4.81571
G1 X155.142 Y101.36 E4.83882
G1 X155.326 Y101.905 E4.85795
G1 X155.596 Y102.84 E4.89032
G1 X155.776 Y103.757 E4.9214
G1 X155.872 Y104.585 E4.94913
G1 X155.923 Y105.559 E4.98157
G1 X155.887 Y106.52 E5.01355
G1 X155.819 Y107.131 E5.034
G1 X155.743 Y107.681 E5.05247
G1 X155.566 Y108.639 E5.08487
G1 X155.325 Y109.51 E5.11493
G1 X154.86 Y110.709 E5.1577
G1 X154.341 Y111.847 E5.1993
G1 X153.287 Y114.248 E5.28652
G1 X152.326 Y116.619 E5.37161
G1 X151.463 Y118.936 E5.45384
G1 X150.648 Y121.326 E5.53783
G1 X149.901 Y123.733 E5.62165
G1 X149.276 Y125.95 E5.69826
G1 X148.879 Y127.098 E5.73867
G1 X148.668 Y127.611 E5.75711
G1 X148.128 Y128.733 E5.79853
G1 X147.762 Y129.392 E5.8236
G1 X147.105 Y130.536 E5.86748
G1 X145.937 Y132.71 E5.94956
G1 X144.794 Y134.988 E6.03433
G1 X143.73 Y137.27 E6.11808
G1 X142.728 Y139.584 E6.20195
G1 X141.784 Y141.949 E6.28664
G1 X140.928 Y144.281 E6.36926
G1 X140.129 Y146.665 E6.45289
G1 X139.398 Y149.07 E6.53649
G1 X138.725 Y151.531 E6.62135
G1 X138.144 Y153.923 E6.70322
G1 X137.602 Y156.46 E6.78951
G1 X137.156 Y158.883 E6.87145
G1 X136.772 Y161.365 E6.95499
G1 X136.455 Y163.853 E7.03841
G1 X136.262 Y165.57 E7.09587
G1 X136.206 Y165.987 E7.10987
G1 X136.02 Y167.167 E7.1496
G1 X135.888 Y167.868 E7.17332
G1 X135.659 Y168.938 E7.20972
G1 X135.285 Y170.498 E7.26308
G1 X134.707 Y173.007 E7.34871
G1 X134.205 Y175.503 E7.43339
G1 X133.777 Y177.999 E7.51762
G1 X133.428 Y180.447 E7.59986
G1 X133.147 Y182.907 E7.68222
G1 X132.881 Y186.122 E7.78951
G1 X132.764 Y188.001 E7.85213
G1 X132.691 Y188.858 E7.88074
G1 X132.56 Y190.036 E7.92016
G1 X132.471 Y190.66 E7.94112
G1 X132.344 Y191.408 E7.96636
G1 X132.173 Y192.234 E7.99441
G1 X131.96 Y193.035 E8.02198
G1 X131.777 Y193.631 E8.04272
G1 X131.449 Y194.548 E8.07511
G1 X131.073 Y195.369 E8.10514
G1 X130.578 Y196.239 E8.13843
G1 X130.36 Y196.585 E8.15204
G1 X129.846 Y197.328 E8.18208
G1 X129.177 Y198.129 E8.2168
G1 X128.54 Y198.769 E8.24683
G1 X127.739 Y199.442 E8.28163
G1 X126.938 Y199.998 E8.31406
G1 X126.092 Y200.48 E8.34644
G1 X125.194 Y200.891 E8.37929
G1 X123.915 Y201.322 E8.42418
G1 X122.788 Y201.575 E8.4626
G1 X121.824 Y201.698 E8.49492
G1 X120.921 Y201.736 E8.52498
G1 X119.812 Y201.681 E8.56191
G1 X117.182 Y201.417 E8.64982
G1 X114.672 Y201.232 E8.73353
G1 X112.153 Y201.12 E8.8174
G1 X109.612 Y201.077 E8.90192
G1 X107.147 Y201.107 E8.98392
G1 X104.591 Y201.209 E9.069
G1 X102.112 Y201.38 E9.15164
G1 X98.981 Y201.687 E9.25628
G1 X98.007 Y201.738 E9.28872
G1 X97.036 Y201.7 E9.32104
G1 X96.069 Y201.578 E9.35346
G1 X95.013 Y201.347 E9.38941
G1 X94.004 Y201.029 E9.4246
G1 X93.137 Y200.669 E9.45582
G1 X92.243 Y200.202 E9.48937
G1 X91.424 Y199.675 E9.52176
G1 X90.654 Y199.078 E9.55417
G1 X89.966 Y198.441 E9.58535
G1 X89.283 Y197.685 E9.61924
G1 X88.608 Y196.772 E9.657
G1 X88.386 Y196.435 E9.67043
G1 X87.924 Y195.659 E9.70046
G1 X87.474 Y194.724 E9.73498
G1 X87.223 Y194.074 E9.75815
G1 X87.117 Y193.772 E9.7688
G1 X86.87 Y192.972 E9.79664
G1 X86.687 Y192.276 E9.82058
G1 X86.553 Y191.712 E9.83986
G1 X86.445 Y191.183 E9.85782
G1 X86.316 Y190.424 E9.88343
G1 X86.203 Y189.495 E9.91455
G1 X86.082 Y188.116 E9.96059
G1 X86.051 Y187.855 E9.96934
G1 X85.904 Y185.603 E10.0444
G1 X85.687 Y182.995 E10.13144
G1 X85.409 Y180.51 E10.21461
G1 X85.055 Y177.985 E10.29941
G1 X84.639 Y175.527 E10.38232
G1 X84.15 Y173.077 E10.46542
G1 X83.558 Y170.486 E10.55382
G1 X83.27 Y169.306 E10.59422
G1 X82.926 Y167.658 E10.65021
G1 X82.827 Y167.107 E10.66883
G1 X82.602 Y165.608 E10.71925
G1 X82.498 Y164.756 E10.74779
G1 X82.45 Y164.232 E10.76529
G1 X82.391 Y163.286 E10.79682
G1 X82.368 Y162.591 E10.81995
G1 X82.376 Y161.691 E10.84988
G1 X82.425 Y160.92 E10.87558
G1 X82.504 Y160.065 E10.90414
G1 X82.59 Y159.384 E10.92697
G1 X82.853 Y157.727 E10.98277
G1 X83.202 Y155.197 E11.06771
G1 X83.478 Y152.674 E11.15213
G1 X83.682 Y150.187 E11.23513
G1 X83.811 Y147.683 E11.31852
G1 X83.873 Y145.14 E11.40313
G1 X83.865 Y142.716 E11.48375
G1 X83.804 Y139.135 E11.60287
G1 X83.801 Y138.304 E11.63051
G1 X83.866 Y137.071 E11.67158
G1 X83.985 Y136.005 E11.70725
G1 X84.071 Y135.325 E11.73005
G1 X84.314 Y132.825 E11.81359
G1 X84.486 Y130.332 E11.89671
G1 X84.59 Y127.764 E11.98219
G1 X84.621 Y125.287 E12.06458
G1 X84.58 Y122.766 E12.14844
G1 X84.468 Y120.235 E12.2327
G1 X84.286 Y117.727 E12.31634
G1 X84.035 Y115.252 E12.39908
G1 X83.706 Y112.718 E12.48407
G1 X83.314 Y110.246 E12.56732
G1 X82.848 Y107.766 E12.65124
G1 X82.321 Y105.338 E12.73388
G1 X81.702 Y102.833 E12.8197
G1 X81.46 Y101.937 E12.85057
G1 X81.259 Y101.107 E12.87898
G1 X79.848 Y94.635 E13.09929
G1 X79.698 Y93.892 E13.1245
G1 X79.549 Y92.929 E13.15691
G1 X79.486 Y91.959 E13.18924
G1 X79.506 Y91.03 E13.22015
G1 X79.548 Y90.538 E13.23657
G1 X79.618 Y89.923 E13.25716
G1 X79.874 Y87.262 E13.34607
G1 X80.041 Y84.802 E13.42808
G1 X80.144 Y82.235 E13.51353
G1 X80.173 Y79.759 E13.59589
G1 X80.13 Y77.232 E13.67995
G1 X80.015 Y74.703 E13.76415
G1 X79.831 Y72.187 E13.84806
G1 X79.573 Y69.653 E13.93277
G1 X79.286 Y67.427 E14.00742
G1 X79.132 Y66.333 E14.04417
G1 X79.031 Y65.067 E14.08641
G1 X79.008 Y63.945 E14.12373
G1 X79.007 Y29.76 E15.26073
G1 X79.019 Y29.059 E15.28405
G1 X79.079 Y28.086 E15.31647
G1 X79.226 Y27.125 E15.34881
G1 X79.457 Y26.177 E15.38126
G0 F6000 X79.836 Y26.306
G1 F1200 X80.138 Y25.417 E15.41249
G1 X80.516 Y24.559 E15.44367
G1 X80.969 Y23.737 E15.47489
G1 X81.493 Y22.957 E15.50614
G1 X82.084 Y22.229 E15.53733
G1 X82.737 Y21.555 E15.56854
G1 X83.447 Y20.941 E15.59976
G1 X84.208 Y20.392 E15.63097
G1 X85.016 Y19.913 E15.66222
G1 X85.83 Y19.522 E15.69225
G1 X86.741 Y19.179 E15.72463
G1 X87.645 Y18.929 E15.75582
G1 X88.573 Y18.759 E15.7872
G1 X89.72 Y18.664 E15.82548
G1 X90.327 Y18.651 E15.84568
G1 X129.27 Y18.651 E17.14093
G1 X130.131 Y18.663 E17.16957
G1 X131.068 Y18.719 E17.20079
G1 X131.996 Y18.858 E17.232
G1 X132.909 Y19.079 E17.26324
G1 X133.798 Y19.38 E17.29446
G1 X134.657 Y19.758 E17.32567
G1 X135.478 Y20.21 E17.35684
G1 X136.229 Y20.712 E17.38689
G1 X136.988 Y21.324 E17.41932
G1 X137.662 Y21.977 E17.45053
G1 X138.276 Y22.686 E17.48172
G1 X138.826 Y23.447 E17.51295
G1 X139.288 Y24.223 E17.54299
G1 X139.711 Y25.1 E17.57538
G1 X140.04 Y25.978 E17.60656
G1 X140.291 Y26.883 E17.6378
G1 X140.461 Y27.806 E17.66901
G1 X140.549 Y28.736 E17.70008
G1 X140.561 Y29.443 E17.7236
G1 X140.547 Y30.154 E17.74725
G1 X140.365 Y35.423 E17.92261
G1 X140.325 Y36.842 E17.96982
G1 X140.295 Y39.382 E18.05431
G1 X140.338 Y41.921 E18.13877
G1 X140.453 Y44.461 E18.22333
G1 X140.637 Y46.973 E18.30711
G1 X140.895 Y49.511 E18.39196
G1 X141.22 Y52.001 E18.47548
G1 X141.618 Y54.498 E18.55958
G1 X142.08 Y56.946 E18.64243
G1 X142.619 Y59.433 E18.72707
G1 X143.232 Y61.898 E18.81156
G1 X143.908 Y64.331 E18.89554
G1 X144.663 Y66.774 E18.98059
G1 X145.465 Y69.131 E19.0634
G1 X146.364 Y71.549 E19.1492
G1 X147.384 Y74.074 E19.23977
G1 X147.686 Y74.926 E19.26984
G1 X147.927 Y75.865 E19.30208
G1 X148.045 Y76.536 E19.32474
G1 X148.197 Y77.606 E19.36069
G1 X148.313 Y78.516 E19.3912
G1 X148.702 Y81.004 E19.47496
G1 X149.165 Y83.497 E19.55929
G1 X149.685 Y85.914 E19.64152
G1 X150.293 Y88.4 E19.72664
G1 X150.969 Y90.853 E19.81127
G1 X151.71 Y93.278 E19.89561
G1 X152.52 Y95.684 E19.98005
G1 X153.393 Y98.052 E20.06399
G1 X154.266 Y100.236 E20.14222
G1 X154.522 Y100.852 E20.1644
G1 X154.763 Y101.488 E20.18702
G1 X154.942 Y102.016 E20.20557
G1 X155.203 Y102.917 E20.23677
G1 X155.383 Y103.834 E20.26785
G1 X155.473 Y104.606 E20.2937
G1 X155.523 Y105.544 E20.32494
G1 X155.489 Y106.476 E20.35596
G1 X155.423 Y107.077 E20.37607
G1 X155.35 Y107.609 E20.39393
G1 X155.18 Y108.532 E20.42515
G1 X154.939 Y109.403 E20.4552
G1 X154.496 Y110.543 E20.49588
G1 X153.977 Y111.681 E20.53748
G1 X152.916 Y114.098 E20.62528
G1 X151.955 Y116.469 E20.71037
G1 X151.088 Y118.796 E20.79296
G1 X150.269 Y121.197 E20.87734
G1 X149.519 Y123.614 E20.96151
G1 X148.898 Y125.819 E21.0377
G1 X148.509 Y126.946 E21.07736
G1 X148.307 Y127.438 E21.09504
G1 X147.778 Y128.539 E21.13567
G1 X147.415 Y129.193 E21.16055
G1 X146.758 Y130.337 E21.20443
G1 X145.579 Y132.531 E21.28727
G1 X144.436 Y134.809 E21.37204
G1 X143.367 Y137.101 E21.45615
G1 X142.356 Y139.436 E21.54078
G1 X141.413 Y141.801 E21.62547
G1 X140.553 Y144.143 E21.70845
G1 X139.746 Y146.549 E21.79285
G1 X139.015 Y148.954 E21.87646
G1 X138.339 Y151.425 E21.96166
G1 X137.755 Y153.829 E22.04395
G1 X137.211 Y156.376 E22.13057
G1 X136.763 Y158.811 E22.21292
G1 X136.375 Y161.315 E22.2972
G1 X136.059 Y163.803 E22.38061
G1 X135.866 Y165.517 E22.43798
G1 X135.811 Y165.925 E22.45167
G1 X135.627 Y167.093 E22.491
G1 X135.497 Y167.784 E22.51439
G1 X135.27 Y168.845 E22.55047
G1 X134.896 Y170.405 E22.60383
G1 X134.317 Y172.917 E22.68957
G1 X133.813 Y175.424 E22.77462
G1 X133.383 Y177.931 E22.85922
G1 X133.032 Y180.39 E22.94184
G1 X132.748 Y182.874 E23.02499
G1 X132.483 Y186.089 E23.13229
G1 X132.365 Y187.967 E23.19487
G1 X132.293 Y188.814 E23.22315
G1 X132.164 Y189.98 E23.26216
G1 X132.077 Y190.593 E23.28276
G1 X131.952 Y191.327 E23.30752
G1 X131.786 Y192.131 E23.33483
G1 X131.577 Y192.918 E23.36191
G1 X131.4 Y193.497 E23.38205
G1 X131.085 Y194.381 E23.41326
G1 X130.709 Y195.202 E23.44329
G1 X130.239 Y196.026 E23.47484
G1 X130.031 Y196.357 E23.48785
G1 X129.517 Y197.1 E23.5179
G1 X128.893 Y197.847 E23.55027
G1 X128.256 Y198.487 E23.5803
G1 X127.51 Y199.114 E23.61271
G1 X126.739 Y199.651 E23.64397
G1 X125.925 Y200.117 E23.67516
G1 X125.066 Y200.512 E23.70661
G1 X123.787 Y200.943 E23.7515
G1 X122.737 Y201.178 E23.78729
G1 X121.807 Y201.298 E23.81847
G1 X120.904 Y201.336 E23.84853
G1 X119.852 Y201.283 E23.88357
G1 X117.215 Y201.018 E23.97172
G1 X114.69 Y200.832 E24.05593
G1 X112.171 Y200.72 E24.13979
G1 X109.614 Y200.677 E24.22485
G1 X107.131 Y200.707 E24.30744
G1 X104.575 Y200.809 E24.39252
G1 X102.081 Y200.981 E24.47567
G1 X98.96 Y201.288 E24.57997
G1 X98.022 Y201.338 E24.61122
G1 X97.085 Y201.303 E24.6424
G1 X96.154 Y201.187 E24.67361
G1 X95.133 Y200.965 E24.70836
G1 X94.157 Y200.659 E24.74238
G1 X93.322 Y200.314 E24.77243
G1 X92.459 Y199.865 E24.80479
G1 X91.669 Y199.359 E24.83599
G1 X90.926 Y198.784 E24.86724
G1 X90.238 Y198.147 E24.89842
G1 X89.605 Y197.447 E24.92981
G1 X88.93 Y196.534 E24.96758
G1 X88.73 Y196.23 E24.97968
G1 X88.268 Y195.454 E25.00972
G1 X87.847 Y194.58 E25.04198
G1 X87.6 Y193.942 E25.06474
G1 X87.499 Y193.654 E25.07489
G1 X87.257 Y192.87 E25.10218
G1 X87.076 Y192.184 E25.12578
G1 X86.945 Y191.631 E25.14468
G1 X86.839 Y191.116 E25.16217
G1 X86.713 Y190.375 E25.18716
G1 X86.601 Y189.46 E25.21783
G1 X86.48 Y188.081 E25.26387
G1 X86.45 Y187.829 E25.27231
G1 X86.303 Y185.57 E25.3476
G1 X86.086 Y182.962 E25.43464
G1 X85.807 Y180.466 E25.51818
G1 X85.451 Y177.929 E25.60339
G1 X85.033 Y175.46 E25.68667
G1 X84.54 Y172.988 E25.77051
G1 X83.948 Y170.397 E25.85891
G1 X83.662 Y169.224 E25.89907
G1 X83.32 Y167.587 E25.95469
G1 X83.223 Y167.047 E25.97294
G1 X82.999 Y165.559 E26.02299
G1 X82.896 Y164.719 E26.05113
G1 X82.849 Y164.207 E26.06823
G1 X82.791 Y163.272 E26.09939
G1 X82.768 Y162.594 E26.12196
G1 X82.775 Y161.716 E26.15116
G1 X82.823 Y160.957 E26.17645
G1 X82.901 Y160.115 E26.20458
G1 X82.985 Y159.447 E26.22697
G1 X83.248 Y157.79 E26.28277
G1 X83.6 Y155.24 E26.36839
G1 X83.876 Y152.717 E26.45281
G1 X84.08 Y150.22 E26.53613
G1 X84.211 Y147.693 E26.6203
G1 X84.273 Y145.15 E26.7049
G1 X84.265 Y142.715 E26.78589
G1 X84.204 Y139.134 E26.90501
G1 X84.201 Y138.303 E26.93265
G1 X84.264 Y137.115 E26.97222
G1 X84.382 Y136.055 E27.00769
G1 X84.468 Y135.375 E27.03049
G1 X84.712 Y132.864 E27.1144
G1 X84.886 Y130.348 E27.19828
G1 X84.99 Y127.78 E27.28376
G1 X85.021 Y125.292 E27.36652
G1 X84.98 Y122.748 E27.45115
G1 X84.868 Y120.217 E27.53541
G1 X84.685 Y117.698 E27.61941
G1 X84.432 Y115.2 E27.70292
G1 X84.103 Y112.666 E27.78791
G1 X83.709 Y110.183 E27.87153
G1 X83.241 Y107.692 E27.95583
G1 X82.712 Y105.253 E28.03884
G1 X82.09 Y102.737 E28.12504
G1 X81.849 Y101.843 E28.15583
G1 X81.65 Y101.022 E28.18393
G1 X80.24 Y94.556 E28.40405
G1 X80.093 Y93.83 E28.42868
G1 X79.948 Y92.903 E28.45989
G1 X79.886 Y91.967 E28.49109
G1 X79.905 Y91.064 E28.52113
G1 X79.947 Y90.572 E28.53755
G1 X80.015 Y89.968 E28.55777
G1 X80.272 Y87.3 E28.64692
G1 X80.441 Y84.818 E28.72966
G1 X80.544 Y82.251 E28.81511
G1 X80.573 Y79.764 E28.89783
G1 X80.53 Y77.214 E28.98266
G1 X80.415 Y74.685 E29.06686
G1 X80.23 Y72.158 E29.15113
G1 X79.971 Y69.613 E29.23622
G1 X79.683 Y67.376 E29.31123
G1 X79.531 Y66.301 E29.34734
G1 X79.431 Y65.059 E29.38879
G1 X79.408 Y63.945 E29.42585
G1 X79.407 Y29.766 E30.56264
G1 X79.418 Y29.083 E30.58536
G1 X79.475 Y28.146 E30.61659
G1 X79.615 Y27.219 E30.64777
G1 X79.836 Y26.306 E30.67901
G0 F6000 X80.215 Y26.434
G1 F1200 X80.504 Y25.578 E30.70906
G1 X80.867 Y24.751 E30.7391
G1 X81.301 Y23.96 E30.76911
G1 X81.804 Y23.209 E30.79917
G1 X82.372 Y22.507 E30.82921
G1 X82.999 Y21.857 E30.85925
G1 X83.681 Y21.265 E30.88928
G1 X84.413 Y20.736 E30.91932
G1 X85.189 Y20.274 E30.94936
G1 X86.003 Y19.883 E30.97939
G1 X86.848 Y19.564 E31.00943
G1 X87.718 Y19.322 E31.03947
