;FLAVOR:Marlin
;TIME:643
;Filament used: 0.310422m
;Layer height: 0.2
;MINX:87.625
;MINY:69.009
;MINZ:0.2
;MAXX:132.39
;MAXY:150.989
;MAXZ:4.2
;TARGET_MACHINE.NAME:Creality Ender-3 Pro
;Generated with Cura_SteamEngine 5.6.0
M82 ;absolute extrusion mode
; Ender 3 Custom Start G-code
G92 E0 ; Reset Extruder
G28 ; Home all axes
G1 Z5.0 F3000 ; Move Z Axis up a bit during heating to not damage bed
M104 S175 ; Start heating up the nozzle most of the way
M190 S60 ; Start heating the bed, wait until target temperature reached
M109 S200 ; Finish heating the nozzle
G1 Z2.0 F3000 ; Move Z Axis up little to prevent scratching of Heat Bed
G1 X0.1 Y20 Z0.3 F5000.0 ; Move to start position
G1 X0.1 Y200.0 Z0.3 F1500.0 E15 ; Draw the first line
G1 X0.4 Y200.0 Z0.3 F5000.0 ; Move to side a little
G1 X0.4 Y20 Z0.3 F1500.0 E30 ; Draw the second line
G92 E0 ; Reset Extruder
G1 Z2.0 F3000 ; Move Z Axis up little to prevent scratching of Heat Bed
G1 X5 Y20 Z0.3 F5000.0 ; Move over to prevent blob squish
G92 E0
G92 E0
G1 F1500 E-6.5
;LAYER_COUNT:21
;LAYER:0
M107
G0 F6000 X102.822 Y73.847 Z0.2
;TYPE:SKIRT
G1 F1500 E0
G1 F1200 X103.402 Y73.065 E0.03238
G1 X104.025 Y72.363 E0.0636
G1 X104.76 Y71.67 E0.0972
G1 X105.525 Y71.069 E0.12956
G1 X106.341 Y70.537 E0.16195
G1 X107.169 Y70.094 E0.19319
G1 X108.098 Y69.701 E0.22674
G1 X109.025 Y69.401 E0.25914
G1 X109.974 Y69.186 E0.29151
G1 X110.94 Y69.054 E0.32394
G1 X111.914 Y69.009 E0.35637
G1 X112.886 Y69.051 E0.38872
G1 X113.851 Y69.178 E0.4211
G1 X114.801 Y69.389 E0.45346
G1 X115.663 Y69.66 E0.48352
G1 X116.628 Y70.062 E0.51829
G1 X117.49 Y70.516 E0.55069
G1 X118.307 Y71.045 E0.58306
G1 X119.075 Y71.644 E0.61546
G1 X119.788 Y72.309 E0.64789
G1 X120.437 Y73.034 E0.68025
G1 X121.021 Y73.813 E0.71263
G1 X121.534 Y74.64 E0.745
G1 X121.942 Y75.446 E0.77505
G1 X122.329 Y76.417 E0.80981
G1 X122.606 Y77.349 E0.84215
G1 X122.799 Y78.294 E0.87423
G1 X122.879 Y78.92 E0.89522
G1 X123.189 Y82.04 E0.9995
G1 X123.512 Y84.523 E1.08279
G1 X123.907 Y87.019 E1.16684
G1 X124.372 Y89.492 E1.25053
G1 X124.905 Y91.946 E1.33405
G1 X125.494 Y94.343 E1.41615
G1 X126.179 Y96.808 E1.50124
G1 X126.925 Y99.228 E1.58547
G1 X127.731 Y101.606 E1.66898
G1 X128.601 Y103.95 E1.75214
G1 X129.564 Y106.338 E1.83778
G1 X130.614 Y108.733 E1.92476
G1 X131.305 Y110.253 E1.98029
G1 X131.667 Y111.16 E2.01277
G1 X131.994 Y112.26 E2.05094
G1 X132.208 Y113.32 E2.08691
G1 X132.283 Y113.9 E2.10636
G1 X132.337 Y114.446 E2.12461
G1 X132.39 Y115.418 E2.15698
G1 X132.356 Y116.392 E2.1894
G1 X132.24 Y117.342 E2.22123
G1 X132.141 Y117.859 E2.23874
G1 X132.022 Y118.405 E2.25733
G1 X131.769 Y119.347 E2.28977
G1 X131.44 Y120.25 E2.32173
G1 X131.087 Y121.052 E2.35088
G1 X130.037 Y123.219 E2.43097
G1 X128.993 Y125.527 E2.51522
G1 X128.024 Y127.846 E2.59881
G1 X127.124 Y130.175 E2.68186
G1 X126.288 Y132.544 E2.76541
G1 X125.511 Y134.955 E2.84966
G1 X124.801 Y137.389 E2.93399
G1 X124.206 Y139.658 E3.01201
G1 X124.056 Y140.261 E3.03268
G1 X123.79 Y141.157 E3.06377
G1 X123.525 Y141.851 E3.08847
G1 X123.265 Y142.465 E3.11065
G1 X122.835 Y143.36 E3.14368
G1 X122.319 Y144.227 E3.17723
G1 X121.982 Y144.734 E3.19748
G1 X121.412 Y145.514 E3.22961
G1 X120.943 Y146.061 E3.25358
G1 X120.515 Y146.528 E3.27465
G1 X119.851 Y147.189 E3.30581
G1 X119.137 Y147.789 E3.33683
G1 X118.635 Y148.174 E3.35787
G1 X117.867 Y148.711 E3.38904
G1 X117.146 Y149.135 E3.41686
G1 X116.604 Y149.424 E3.43729
G1 X115.728 Y149.84 E3.46954
G1 X114.917 Y150.147 E3.49839
G1 X114.306 Y150.349 E3.51979
G1 X113.374 Y150.612 E3.552
G1 X112.572 Y150.769 E3.57918
G1 X111.924 Y150.868 E3.60098
G1 X110.961 Y150.969 E3.63319
G1 X110.12 Y150.989 E3.66117
G1 X109.495 Y150.978 E3.68196
G1 X108.526 Y150.918 E3.71425
G1 X107.634 Y150.786 E3.74424
G1 X106.991 Y150.662 E3.76602
G1 X106.049 Y150.435 E3.79825
G1 X105.251 Y150.173 E3.82618
G1 X104.717 Y149.972 E3.84516
G1 X103.857 Y149.607 E3.87623
G1 X103.16 Y149.244 E3.90237
G1 X102.589 Y148.919 E3.92422
G1 X101.766 Y148.399 E3.9566
G1 X101.035 Y147.843 E3.98715
G1 X100.548 Y147.439 E4.0082
G1 X99.831 Y146.787 E4.04043
G1 X99.304 Y146.224 E4.06608
G1 X98.889 Y145.748 E4.08708
G1 X98.305 Y145.013 E4.11831
G1 X97.733 Y144.142 E4.15296
G1 X97.411 Y143.597 E4.17402
G1 X96.972 Y142.772 E4.2051
G1 X96.637 Y141.996 E4.23321
G1 X96.415 Y141.42 E4.25374
G1 X96.042 Y140.271 E4.29392
G1 X95.346 Y137.622 E4.38502
G1 X94.632 Y135.198 E4.46907
G1 X93.874 Y132.865 E4.55066
G1 X93.011 Y130.443 E4.63617
G1 X92.109 Y128.126 E4.71887
G1 X91.114 Y125.768 E4.80399
G1 X90.099 Y123.539 E4.88546
G1 X89.463 Y122.262 E4.9329
G1 X89.382 Y122.079 E4.93956
G1 X88.778 Y120.836 E4.98553
G1 X88.388 Y119.923 E5.01855
G1 X88.096 Y119.033 E5.0497
G1 X87.867 Y118.057 E5.08304
G1 X87.725 Y117.116 E5.1147
G1 X87.636 Y116.134 E5.14749
G1 X87.625 Y115.461 E5.16988
G1 X87.631 Y115.159 E5.17993
G1 X87.691 Y114.196 E5.21202
G1 X87.791 Y113.474 E5.23626
G1 X87.865 Y113.049 E5.25061
G1 X88.059 Y112.167 E5.28064
G1 X88.385 Y111.137 E5.31658
G1 X88.496 Y110.843 E5.32703
G1 X88.874 Y109.953 E5.35919
G1 X89.228 Y109.274 E5.38466
G1 X89.754 Y108.35 E5.42002
G1 X90.332 Y107.372 E5.45781
G1 X91.552 Y105.171 E5.54151
G1 X92.71 Y102.938 E5.62517
G1 X93.797 Y100.686 E5.70834
G1 X94.846 Y98.346 E5.79363
G1 X95.803 Y96.042 E5.87661
G1 X96.697 Y93.699 E5.96002
G1 X97.534 Y91.306 E6.04434
G1 X98.3 Y88.904 E6.12819
G1 X98.988 Y86.511 E6.21101
G1 X99.61 Y84.094 E6.29402
G1 X100.196 Y81.514 E6.38201
G1 X100.523 Y79.908 E6.43653
G1 X100.726 Y79.029 E6.46653
G1 X100.864 Y78.499 E6.48475
G1 X101.129 Y77.62 E6.51528
G1 X101.523 Y76.455 E6.55619
G1 X101.879 Y75.548 E6.58859
G1 X102.313 Y74.676 E6.62099
G1 X102.822 Y73.847 E6.65335
G0 F6000 X103.144 Y74.085
G1 F1200 X103.702 Y73.33 E6.68457
G1 X104.3 Y72.654 E6.71459
G1 X105.008 Y71.984 E6.74701
G1 X105.744 Y71.404 E6.77818
G1 X106.53 Y70.89 E6.80941
G1 X107.358 Y70.447 E6.84065
G1 X108.222 Y70.081 E6.87186
G1 X109.114 Y69.791 E6.90305
G1 X110.029 Y69.582 E6.93427
G1 X110.959 Y69.454 E6.96549
G1 X111.897 Y69.409 E6.99673
G1 X112.834 Y69.448 E7.02792
G1 X113.765 Y69.569 E7.05914
G1 X114.681 Y69.771 E7.09034
G1 X115.543 Y70.042 E7.1204
G1 X116.442 Y70.416 E7.15278
G1 X117.273 Y70.852 E7.18399
G1 X118.062 Y71.361 E7.21522
G1 X118.803 Y71.937 E7.24644
G1 X119.49 Y72.576 E7.27764
G1 X120.117 Y73.274 E7.30885
G1 X120.681 Y74.024 E7.34006
G1 X121.177 Y74.821 E7.37128
G1 X121.585 Y75.627 E7.40133
G1 X121.946 Y76.531 E7.43371
G1 X122.214 Y77.43 E7.46491
G1 X122.402 Y78.345 E7.49598
G1 X122.481 Y78.96 E7.5166
G1 X122.792 Y82.092 E7.62128
G1 X123.115 Y84.575 E7.70456
G1 X123.514 Y87.093 E7.78936
G1 X123.981 Y89.577 E7.87342
G1 X124.514 Y92.031 E7.95695
G1 X125.109 Y94.45 E8.0398
G1 X125.797 Y96.926 E8.12527
G1 X126.546 Y99.356 E8.20985
G1 X127.356 Y101.745 E8.29375
G1 X128.23 Y104.1 E8.3773
G1 X129.193 Y106.488 E8.46294
G1 X130.25 Y108.899 E8.5505
G1 X130.934 Y110.402 E8.60542
G1 X131.284 Y111.275 E8.6367
G1 X131.602 Y112.339 E8.67364
G1 X131.811 Y113.372 E8.70869
G1 X131.885 Y113.94 E8.72774
G1 X131.938 Y114.468 E8.74539
G1 X131.99 Y115.405 E8.7766
G1 X131.959 Y116.344 E8.80785
G1 X131.847 Y117.267 E8.83878
G1 X131.75 Y117.774 E8.85595
G1 X131.635 Y118.302 E8.87392
G1 X131.393 Y119.21 E8.90517
G1 X131.064 Y120.113 E8.93714
G1 X130.727 Y120.878 E8.96494
G1 X129.677 Y123.045 E9.04503
G1 X128.629 Y125.362 E9.12961
G1 X127.655 Y127.692 E9.21361
G1 X126.751 Y130.031 E9.29701
G1 X125.907 Y132.421 E9.38131
G1 X125.13 Y134.832 E9.46556
G1 X124.417 Y137.277 E9.55027
G1 X123.819 Y139.556 E9.62864
G1 X123.672 Y140.148 E9.64893
G1 X123.416 Y141.014 E9.67896
G1 X123.156 Y141.695 E9.70321
G1 X122.904 Y142.292 E9.72476
G1 X122.491 Y143.155 E9.75658
G1 X121.975 Y144.022 E9.79014
G1 X121.659 Y144.498 E9.80914
G1 X121.108 Y145.254 E9.84026
G1 X120.648 Y145.791 E9.86377
G1 X120.232 Y146.245 E9.88425
G1 X119.593 Y146.883 E9.91429
G1 X118.893 Y147.472 E9.94471
G1 X118.406 Y147.846 E9.96514
G1 X117.638 Y148.383 E9.99631
G1 X116.958 Y148.782 E10.02253
G1 X116.432 Y149.063 E10.04236
G1 X115.586 Y149.466 E10.07353
G1 X114.791 Y149.767 E10.1018
G1 X114.197 Y149.964 E10.12262
G1 X113.297 Y150.219 E10.15373
G1 X112.495 Y150.376 E10.18091
G1 X111.882 Y150.47 E10.20154
G1 X110.951 Y150.569 E10.23268
G1 X110.127 Y150.589 E10.26009
G1 X109.519 Y150.579 E10.28032
G1 X108.584 Y150.522 E10.31147
G1 X107.709 Y150.393 E10.34089
G1 X107.084 Y150.273 E10.36206
G1 X106.174 Y150.055 E10.39318
G1 X105.391 Y149.798 E10.42059
G1 X104.873 Y149.604 E10.43899
G1 X104.013 Y149.239 E10.47006
G1 X103.357 Y148.896 E10.49468
G1 X102.802 Y148.581 E10.51591
G1 X102.008 Y148.081 E10.54712
G1 X101.29 Y147.535 E10.57712
G1 X100.817 Y147.143 E10.59755
G1 X100.123 Y146.514 E10.6287
G1 X99.605 Y145.961 E10.65391
G1 X99.202 Y145.499 E10.6743
G1 X98.639 Y144.793 E10.70433
G1 X98.077 Y143.939 E10.73833
G1 X97.764 Y143.409 E10.75881
G1 X97.339 Y142.613 E10.78882
G1 X97.01 Y141.852 E10.81639
G1 X96.795 Y141.296 E10.83622
G1 X96.429 Y140.169 E10.87563
G1 X95.733 Y137.52 E10.96673
G1 X95.016 Y135.085 E11.05115
G1 X94.251 Y132.731 E11.13348
G1 X93.388 Y130.309 E11.219
G1 X92.478 Y127.97 E11.30247
G1 X91.483 Y125.612 E11.3876
G1 X90.463 Y123.373 E11.46943
G1 X89.829 Y122.1 E11.51673
G1 X89.748 Y121.917 E11.52339
G1 X89.146 Y120.678 E11.5692
G1 X88.768 Y119.798 E11.60106
G1 X88.476 Y118.908 E11.63221
G1 X88.263 Y117.997 E11.66333
G1 X88.121 Y117.056 E11.69498
G1 X88.036 Y116.127 E11.72601
G1 X88.025 Y115.468 E11.74793
G1 X88.03 Y115.183 E11.75741
G1 X88.087 Y114.251 E11.78847
G1 X88.185 Y113.543 E11.81224
G1 X88.256 Y113.135 E11.82601
G1 X88.45 Y112.253 E11.85605
G1 X88.76 Y111.277 E11.89011
G1 X88.864 Y110.999 E11.89998
G1 X89.229 Y110.138 E11.93109
G1 X89.576 Y109.472 E11.95606
G1 X90.098 Y108.554 E11.99119
G1 X90.676 Y107.576 E12.02897
G1 X91.902 Y105.365 E12.11306
G1 X93.065 Y103.122 E12.19709
G1 X94.162 Y100.85 E12.28101
G1 X95.211 Y98.51 E12.3663
G1 X96.176 Y96.185 E12.45002
G1 X97.071 Y93.842 E12.53345
G1 X97.912 Y91.438 E12.61815
G1 X98.681 Y89.026 E12.70236
G1 X99.372 Y86.622 E12.78555
G1 X100 Y84.183 E12.86932
G1 X100.586 Y81.603 E12.95732
G1 X100.913 Y79.998 E13.01179
G1 X101.113 Y79.13 E13.04142
G1 X101.247 Y78.614 E13.05915
G1 X101.508 Y77.748 E13.08923
G1 X101.896 Y76.6 E13.12954
G1 X102.237 Y75.726 E13.16074
G1 X102.654 Y74.885 E13.19196
G1 X103.144 Y74.085 E13.22317
G0 F6000 X103.466 Y74.322
G1 F1200 X104.002 Y73.595 E13.25321
G1 X104.6 Y72.919 E13.28323
G1 X105.256 Y72.298 E13.31327
G1 X105.964 Y71.738 E13.3433
G1 X106.719 Y71.242 E13.37334
G1 X107.515 Y70.815 E13.40338
G1 X108.346 Y70.461 E13.43343
G1 X109.204 Y70.181 E13.46345
G1 X110.084 Y69.978 E13.49348
G1 X110.979 Y69.854 E13.52354
G1 X111.881 Y69.809 E13.55357
G1 X112.783 Y69.845 E13.5836
G1 X113.679 Y69.96 E13.61364
G1 X114.561 Y70.153 E13.64367
G1 X115.423 Y70.424 E13.67373
G1 X116.257 Y70.771 E13.70377
G1 X117.057 Y71.189 E13.73379
G1 X117.817 Y71.677 E13.76383
G1 X118.531 Y72.23 E13.79387
G1 X119.193 Y72.844 E13.8239
G1 X119.798 Y73.515 E13.85395
G1 X120.342 Y74.236 E13.88399
G1 X120.82 Y75.002 E13.91402
G1 X121.228 Y75.808 E13.94407
G1 X121.563 Y76.646 E13.97408
G1 X121.822 Y77.511 E14.00412
G1 X122.005 Y78.396 E14.03417
G1 X122.083 Y79 E14.05443
G1 X122.395 Y82.144 E14.15951
G1 X122.718 Y84.627 E14.24279
G1 X123.121 Y87.167 E14.32833
G1 X123.59 Y89.662 E14.41277
G1 X124.123 Y92.116 E14.49629
G1 X124.724 Y94.557 E14.57991
G1 X125.415 Y97.044 E14.66576
G1 X126.167 Y99.484 E14.75068
G1 X126.981 Y101.884 E14.83497
G1 X127.859 Y104.25 E14.91891
G1 X128.823 Y106.638 E15.00456
G1 X129.886 Y109.065 E15.09268
G1 X130.563 Y110.552 E15.14703
G1 X130.901 Y111.39 E15.17708
G1 X131.21 Y112.419 E15.21282
G1 X131.414 Y113.424 E15.24692
G1 X131.487 Y113.98 E15.26557
G1 X131.539 Y114.491 E15.28266
G1 X131.59 Y115.393 E15.31271
G1 X131.562 Y116.296 E15.34276
G1 X131.454 Y117.192 E15.37277
G1 X131.359 Y117.689 E15.3896
G1 X131.248 Y118.2 E15.40699
G1 X131.017 Y119.073 E15.43703
G1 X130.688 Y119.976 E15.46899
G1 X130.367 Y120.704 E15.49546
G1 X129.317 Y122.871 E15.57555
G1 X128.265 Y125.197 E15.66046
G1 X127.286 Y127.538 E15.74485
G1 X126.378 Y129.887 E15.82861
G1 X125.526 Y132.298 E15.91366
G1 X124.749 Y134.709 E15.99791
G1 X124.033 Y137.165 E16.083
G1 X123.432 Y139.454 E16.16172
G1 X123.288 Y140.035 E16.18162
G1 X123.032 Y140.901 E16.21166
G1 X122.787 Y141.539 E16.23439
G1 X122.535 Y142.136 E16.25594
G1 X122.147 Y142.951 E16.28597
G1 X121.642 Y143.801 E16.31885
G1 X121.336 Y144.263 E16.33728
G1 X120.804 Y144.994 E16.36735
G1 X120.353 Y145.521 E16.39042
G1 X119.949 Y145.962 E16.41031
G1 X119.31 Y146.6 E16.44035
G1 X118.649 Y147.155 E16.46905
G1 X118.176 Y147.519 E16.4889
G1 X117.436 Y148.038 E16.51897
G1 X116.769 Y148.429 E16.54468
G1 X116.259 Y148.702 E16.56392
G1 X115.444 Y149.092 E16.59397
G1 X114.665 Y149.387 E16.62168
G1 X114.088 Y149.579 E16.6419
G1 X113.22 Y149.826 E16.67192
G1 X112.418 Y149.983 E16.6991
G1 X111.839 Y150.072 E16.71858
G1 X110.941 Y150.169 E16.74863
G1 X110.133 Y150.189 E16.77551
G1 X109.543 Y150.18 E16.79513
G1 X108.642 Y150.126 E16.82516
G1 X107.784 Y150 E16.854
G1 X107.177 Y149.884 E16.87455
G1 X106.299 Y149.675 E16.90457
G1 X105.531 Y149.423 E16.93145
G1 X105.029 Y149.236 E16.94927
G1 X104.198 Y148.884 E16.97929
G1 X103.554 Y148.548 E17.00345
G1 X103.015 Y148.242 E17.02406
G1 X102.25 Y147.762 E17.0541
G1 X101.545 Y147.227 E17.08354
G1 X101.085 Y146.846 E17.1034
G1 X100.415 Y146.24 E17.13345
G1 X99.906 Y145.698 E17.15818
G1 X99.515 Y145.25 E17.17796
G1 X98.952 Y144.544 E17.20799
G1 X98.421 Y143.735 E17.24018
G1 X98.117 Y143.221 E17.26004
G1 X97.692 Y142.425 E17.29005
G1 X97.383 Y141.708 E17.31602
G1 X97.168 Y141.152 E17.33585
G1 X96.816 Y140.067 E17.37379
G1 X96.12 Y137.418 E17.46488
G1 X95.4 Y134.972 E17.54969
G1 X94.628 Y132.597 E17.63275
G1 X93.765 Y130.175 E17.71827
G1 X92.851 Y127.825 E17.80213
G1 X91.852 Y125.457 E17.88761
G1 X90.827 Y123.207 E17.96985
G1 X90.195 Y121.938 E18.017
G1 X90.114 Y121.755 E18.02366
G1 X89.506 Y120.503 E18.06995
G1 X89.148 Y119.673 E18.10001
G1 X88.865 Y118.816 E18.13003
G1 X88.658 Y117.937 E18.16007
G1 X88.519 Y117.019 E18.19095
G1 X88.436 Y116.12 E18.22097
G1 X88.425 Y115.474 E18.24246
G1 X88.429 Y115.207 E18.25134
G1 X88.483 Y114.306 E18.28137
G1 X88.579 Y113.612 E18.30467
G1 X88.647 Y113.221 E18.31787
G1 X88.841 Y112.339 E18.3479
G1 X89.135 Y111.416 E18.38012
G1 X89.232 Y111.155 E18.38938
G1 X89.584 Y110.323 E18.41943
G1 X89.924 Y109.67 E18.44392
G1 X90.442 Y108.758 E18.4788
G1 X91.02 Y107.78 E18.51659
G1 X92.252 Y105.559 E18.60106
G1 X93.42 Y103.306 E18.68547
G1 X94.527 Y101.014 E18.77013
G1 X95.576 Y98.674 E18.85542
G1 X96.549 Y96.328 E18.93989
G1 X97.445 Y93.985 E19.02332
G1 X98.29 Y91.57 E19.10842
G1 X99.062 Y89.147 E19.193
G1 X99.756 Y86.733 E19.27654
G1 X100.39 Y84.272 E19.36107
G1 X100.976 Y81.692 E19.44907
G1 X101.303 Y80.088 E19.50351
G1 X101.5 Y79.23 E19.53279
G1 X101.63 Y78.729 E19.55001
G1 X101.887 Y77.876 E19.57964
G1 X102.269 Y76.745 E19.61934
G1 X102.596 Y75.903 E19.64939
G1 X102.996 Y75.093 E19.67943
G1 X103.466 Y74.322 E19.70947
G1 F1500 E13.20947
;MESH:anduril.STL
G0 F6000 X110.498 Y82.688
G0 X111.348 Y85.4
;TYPE:WALL-INNER
G1 F1500 E19.70947
G1 F1086 X111.296 Y86.097 E19.73515
G1 F904 X111.259 Y86.956 E19.77312
G1 F793.4 X111.222 Y87.816 E19.81642
G1 F745.3 X111.22 Y89.406 E19.90156
G1 F1500 E13.40156
G0 F6000 X111.008 Y89.784
G0 X110.209 Y90.98
G0 X110.13 Y94.383
G0 X108.777 Y97.192
G0 X108.583 Y115.039
G0 X107.615 Y115.416
G0 X108.773 Y116.181
G0 X108.739 Y118.081
G0 X109.293 Y131.938
G0 X109.498 Y135.73
G0 X109.331 Y135.963
G1 F1500 E19.90156
G1 F1200 X109.497 Y135.908 E19.90738
G1 X110.025 Y135.823 E19.92517
G1 X110.336 Y135.845 E19.93554
G1 X110.661 Y135.94 E19.9468
G1 X110.81 Y132.229 E20.07033
G1 X110.858 Y132.015 E20.07762
G1 X110.943 Y131.947 E20.08124
G1 X110.864 Y131.873 E20.08484
G1 X110.832 Y131.652 E20.09227
G1 X110.906 Y129.843 E20.15249
G1 X110.947 Y129.715 E20.15696
G1 X111.042 Y129.637 E20.16104
G1 X110.953 Y129.552 E20.16514
G1 X110.926 Y129.42 E20.16962
G1 X110.996 Y127.61 E20.22986
G1 X111.037 Y127.415 E20.23649
G1 X111.143 Y127.327 E20.24107
G1 X111.044 Y127.232 E20.24564
